%
(contour-1-flat.nc)
(T1  D=1.5 CR=0 - ZMIN=-4.5 - flat end mill)
G90 G94
G17
G21
G28 G91 Z0
G90

(2D Contour4)
M9
T1 M6
S8000 M3
G54
M8
G0 X134.05 Y209.35
Z15
Z5
G1 Z1 F100
Z-4.35
G18 G2 X134.2 Z-4.5 I0.15
G1 X134.35
G17 G3 X134.5 Y209.5 J0.15
X131 I-1.75 F150
G1 Y124.5
G3 X134.5 I1.75
G1 Y209.5
G3 X134.35 Y209.65 I-0.15 F100
G1 X134.2
G18 G3 X134.05 Z-4.35 K0.15
G0 Z15
G17
M9
G28 G91 Z0
G28 X0 Y0
M30
%
