%
(contour-1-flat.nc)
(T1  D=1.5 CR=0 - ZMIN=-2.5 - flat end mill)
G90 G94
G17
G21
G28 G91 Z0
G90

(2D Contour1)
M9
T1 M6
S8000 M3
G54
M8
G0 X74.85 Y161.7
Z15
Z5
G1 Z2 F100
Z-0.85
G19 G2 Y161.55 Z-1 J-0.15
G1 Y161.4
G17 G3 X75 Y161.25 I0.15
G1 X93.25
Y173.75
X68.75
Y161.25
X75
G3 X75.15 Y161.4 J0.15
G1 Y161.55
G19 G3 Y161.7 Z-0.85 K0.15
G1 X74.85
Z-1.85
G2 Y161.55 Z-2 J-0.15
G1 Y161.4
G17 G3 X75 Y161.25 I0.15
G1 X93.25
Y173.75
X68.75
Y161.25
X75
G3 X75.15 Y161.4 J0.15
G1 Y161.55
G19 G3 Y161.7 Z-1.85 K0.15
G1 X74.85
Z-2.35
G2 Y161.55 Z-2.5 J-0.15
G1 Y161.4
G17 G3 X75 Y161.25 I0.15
G1 X93.25
Y173.75
X68.75
Y161.25
X75
G3 X75.15 Y161.4 J0.15
G1 Y161.55
G19 G3 Y161.7 Z-2.35 K0.15
G0 Z15
G17
M9
G28 G91 Z0
G28 X0 Y0
M30
%
