%
(contour-1-flat.nc)
(T1  D=1.5 CR=0 - ZMIN=-4.5 - flat end mill)
G90 G94
G17
G21
G28 G91 Z0
G90

(2D Contour5)
M9
T1 M6
S8000 M3
G54
M8
G0 X158.3 Y119.85
Z15
Z5
G1 Z1 F100
Z-4.35
G18 G2 X158.45 Z-4.5 I0.15
G1 X158.6
G17 G3 X158.75 Y120 J0.15
G1 Y270
G2 X159.5 Y270.75 I0.75
G1 X204
G2 X204.75 Y270 J-0.75
G1 Y120
G2 X204 Y119.25 I-0.75
G1 X159.5
G2 X158.75 Y120 J0.75
G3 X158.6 Y120.15 I-0.15
G1 X158.45
G18 G3 X158.3 Z-4.35 K0.15
G1 X155.169 Y118.803
Y118.81 Z-4.396
Y118.831 Z-4.438
X155.168 Y118.864 Z-4.471
X155.167 Y118.906 Z-4.493
Y118.953 Z-4.5
X155.164 Y119.103
G17 G3 X155.012 Y119.25 I-0.15 J-0.002
G2 X155 I-0.012 J0.75
G1 X110.5
G2 X109.75 Y120 J0.75
G1 Y270
G2 X110.5 Y270.75 I0.75
G1 X155
G2 X155.75 Y270 J-0.75
G1 Y120
G2 X155.012 Y119.25 I-0.75
G3 X154.864 Y119.098 I0.002 J-0.15
G1 X154.867 Y118.948
Y118.901 Z-4.493
X154.868 Y118.86 Z-4.471
X154.869 Y118.826 Z-4.438
Y118.805 Z-4.396
Y118.798 Z-4.35
G0 Z15
M9
G28 G91 Z0
G28 X0 Y0
M30
%
