%
(contour-1-flat.nc)
(T1  D=1.5 CR=0 - ZMIN=-2.5 - flat end mill)
G90 G94
G17
G21
G28 G91 Z0
G90

(2D Contour3)
M9
T1 M6
S8000 M3
G54
M8
G0 X67.012 Y271.209
Z15
Z5
G1 Z2.7 F100
Z-1.55
X67.011 Y271.202 Z-1.596
X67.008 Y271.181 Z-1.638
X67.004 Y271.148 Z-1.671
X66.998 Y271.107 Z-1.693
X66.992 Y271.061 Z-1.7
X66.972 Y270.912
G3 X67.1 Y270.743 I0.149 J-0.02
G2 X67.75 Y270 I-0.1 J-0.743 F150
G1 Y205
G3 X82 Y190.75 I14.25
G1 X92
G2 X107.75 Y175 J-15.75
G1 Y160
G2 X92 Y144.25 I-15.75
G1 X82
G3 X67.75 Y130 J-14.25
G1 Y120
G3 X95 Y92.75 I27.25
G1 X215
G2 X215.75 Y92 J-0.75
G1 Y30
G2 X215 Y29.25 I-0.75
G1 X135
G3 X125.75 Y20 J-9.25
G2 X94.25 I-15.75
G1 Y20.501
G3 X85.925 Y29.705 I-9.25
G2 X4.25 Y120 I9.075 J90.295
G1 Y270
G2 X5 Y270.75 I0.75
G1 X67
G2 X67.1 Y270.743 J-0.75
G3 X67.269 Y270.872 I0.02 J0.149 F100
G1 X67.289 Y271.02
X67.295 Y271.066 Z-1.693
X67.301 Y271.108 Z-1.671
X67.306 Y271.141 Z-1.638
X67.308 Y271.162 Z-1.596
X67.309 Y271.169 Z-1.55
X67.012 Y271.209
Z-2.35
X67.011 Y271.202 Z-2.396
X67.008 Y271.181 Z-2.438
X67.004 Y271.148 Z-2.471
X66.998 Y271.107 Z-2.493
X66.992 Y271.061 Z-2.5
X66.972 Y270.912
G3 X67.1 Y270.743 I0.149 J-0.02
G2 X67.75 Y270 I-0.1 J-0.743 F150
G1 Y205
G3 X82 Y190.75 I14.25
G1 X92
G2 X107.75 Y175 J-15.75
G1 Y160
G2 X92 Y144.25 I-15.75
G1 X82
G3 X67.75 Y130 J-14.25
G1 Y120
G3 X95 Y92.75 I27.25
G1 X153.5
Z-2.125
X156.5
Z-2.5 F100
X215 F150
G2 X215.75 Y92 J-0.75
G1 Y30
G2 X215 Y29.25 I-0.75
G1 X135
G3 X125.75 Y20 J-9.25
G2 X94.25 I-15.75
G1 Y20.501
G3 X85.925 Y29.705 I-9.25
G2 X28.713 Y58.019 I9.075 J90.295
G1 Z-2.125
G2 X26.701 Y60.244 I66.287 J61.981
G1 Z-2.5 F100
G2 X4.25 Y120 I68.299 J59.756 F150
G1 Y193.5
Z-2.125
Y196.5
Z-2.5 F100
Y270 F150
G2 X5 Y270.75 I0.75
G1 X67
G2 X67.1 Y270.743 J-0.75
G3 X67.269 Y270.872 I0.02 J0.149 F100
G1 X67.289 Y271.02
X67.295 Y271.066 Z-2.493
X67.301 Y271.108 Z-2.471
X67.306 Y271.141 Z-2.438
X67.308 Y271.162 Z-2.396
X67.309 Y271.169 Z-2.35
G0 Z15
M9
G28 G91 Z0
G28 X0 Y0
M30
%
