%
(contour-1-flat.nc)
(T1  D=1.5 CR=0 - ZMIN=-4.5 - flat end mill)
G90 G94
G17
G21
G28 G91 Z0
G90

(2D Contour6)
M9
T1 M6
S8000 M3
G54
M8
G0 X224.85 Y126.2
Z15
Z5
G1 Z1 F100
Z-4.35
G19 G2 Y126.05 Z-4.5 J-0.15
G1 Y125.9
G17 G3 X225 Y125.75 I0.15
G1 X245.75
Z-4.1
X248.75
Z-4.5
X269.5
G2 X270.25 Y125 J-0.75
G1 Y106.5
Z-4.1
Y103.5
Z-4.5
Y66.5
Z-4.1
Y63.5
Z-4.5
Y26.5
Z-4.1
Y23.5
Z-4.5
Y5
G2 X269.5 Y4.25 I-0.75
G1 X248.75
Z-4.1
X245.75
Z-4.5
X225
G2 X224.25 Y5 J0.75
G1 Y23.5
Z-4.1
Y26.5
Z-4.5
Y63.5
Z-4.1
Y66.5
Z-4.5
Y103.5
Z-4.1
Y106.5
Z-4.5
Y125
G2 X225 Y125.75 I0.75
G3 X225.15 Y125.9 J0.15
G1 Y126.05
G19 G3 Y126.2 Z-4.35 K0.15
G1 X269.65 Y133.8
G3 Y133.95 Z-4.5 J0.15
G1 Y134.1
G17 G3 X269.5 Y134.25 I-0.15
G1 X248.75
Z-4.1
X245.75
Z-4.5
X225
G2 X224.25 Y135 J0.75
G1 Y153.5
Z-4.1
Y156.5
Z-4.5
Y193.5
Z-4.1
Y196.5
Z-4.5
Y233.5
Z-4.1
Y236.5
Z-4.5
Y255
G2 X225 Y255.75 I0.75
G1 X245.75
Z-4.1
X248.75
Z-4.5
X269.5
G2 X270.25 Y255 J-0.75
G1 Y236.5
Z-4.1
Y233.5
Z-4.5
Y196.5
Z-4.1
Y193.5
Z-4.5
Y156.5
Z-4.1
Y153.5
Z-4.5
Y135
G2 X269.5 Y134.25 I-0.75
G3 X269.35 Y134.1 J-0.15
G1 Y133.95
G19 G2 Y133.8 Z-4.35 K0.15
G0 Z5
X263.55 Y56.35
G1 Z1 F100
Z-4.35
G18 G2 X263.7 Z-4.5 I0.15
G1 X263.85
G17 G3 X264 Y56.5 J0.15
G1 Y72.5
Z-4.1
Y75.5
Z-4.5
Y108.25
X230.5
Y75.5
Z-4.1
Y72.5
Z-4.5
Y39.75
X264
Y56.5
G3 X263.85 Y56.65 I-0.15
G1 X263.7
G18 G3 X263.55 Z-4.35 K0.15
G0 Z15
G17
M9
G28 G91 Z0
G28 X0 Y0
M30
%
