%
(contour-1-flat.nc)
(T1  D=1.5 CR=0 - ZMIN=-2.5 - flat end mill)
G90 G94
G17
G21
G28 G91 Z0
G90

(2D Pocket3)
M9
T1 M6
S8000 M3
G54
M8
G0 X110.402 Y19.6
Z15
Z5
G1 Z2.648 F100
G3 X110.421 Y19.629 Z2.551 I-0.589 J0.4
X110.462 Y19.708 Z2.5 I-0.608 J0.371
X110.525 Y20 Z2.447 I-0.65 J0.292
X109.1 Z2.052 I-0.713
X110.525 Z1.658 I0.713
X109.1 Z1.263 I-0.713
X110.525 Z0.868 I0.713
X109.1 Z0.473 I-0.713
X110.525 Z0.079 I0.713
X109.1 Z-0.316 I-0.713
X110.525 Z-0.711 I0.713
X109.1 Z-1.105 I-0.713
X110.525 Z-1.5 I0.713
X109.475 I-0.525 F150
X111.95 I1.238
X108.05 I-1.95
X111.95 I1.95
X111.238 Y20.712 Z-1.69 I-0.712 F100
G1 X109.813 Z-1.931
G3 Y19.287 Z-2.31 J-0.712
X110.525 Y20 Z-2.5 J0.713
X109.475 I-0.525 F150
X111.95 I1.238
X108.05 I-1.95
X111.95 I1.95
X111.932 Y20.072 Z-2.48 I-0.15 F100
X111.897 Y20.114 Z-2.425 I-0.132 J-0.072
X111.881 Y20.126 Z-2.35 I-0.097 J-0.114
G0 Z15
M9
G28 G91 Z0
G28 X0 Y0
M30
%
