%
(contour-1-flat.nc)
(T1  D=1.5 CR=0 - ZMIN=-1.5 - flat end mill)
G90 G94
G17
G21
G28 G91 Z0
G90

(2D Pocket1)
M9
T1 M6
S8000 M3
G54
M8
G0 X216.638 Y39.094
Z15
Z5
G1 Z-1.365 F100
X216.632 Y39.095 Z-1.407
X216.613 Y39.098 Z-1.444
X216.583 Y39.103 Z-1.474
X216.546 Y39.108 Z-1.493
X216.505 Y39.115 Z-1.5
X215.664 Y39.248
G3 X215.64 Y39.25 I-0.023 J-0.148
G1 X95 F200
G2 X14.25 Y120 J80.75
G1 Y270
Y270.643
G3 X14.248 Y270.667 I-0.15 F100
G1 X14.131 Y271.407
X14.124 Y271.453 Z-1.493
X14.117 Y271.494 Z-1.471
X14.112 Y271.527 Z-1.438
X14.109 Y271.548 Z-1.396
X14.107 Y271.555 Z-1.35
G0 Z5
X13.907 Y271.646
G1 Z-1.365 F100
X13.906 Y271.639 Z-1.407
X13.903 Y271.62 Z-1.444
X13.899 Y271.591 Z-1.474
X13.893 Y271.554 Z-1.493
X13.886 Y271.512 Z-1.5
X13.752 Y270.664
G3 X13.75 Y270.64 I0.148 J-0.023
G1 Y120 F200
G3 X95 Y38.75 I81.25
G1 X215
X215.643
G3 X215.667 Y38.752 J0.15 F100
G1 X216.407 Y38.869
X216.453 Y38.876 Z-1.493
X216.494 Y38.883 Z-1.471
X216.527 Y38.888 Z-1.438
X216.548 Y38.891 Z-1.396
X216.555 Y38.893 Z-1.35
G0 Z15
X216.637 Y83.094
Z5
G1 Z-1.365 F100
X216.631 Y83.095 Z-1.407
X216.612 Y83.098 Z-1.444
X216.582 Y83.103 Z-1.474
X216.545 Y83.108 Z-1.493
X216.504 Y83.115 Z-1.5
X215.663 Y83.248
G3 X215.64 Y83.25 I-0.023 J-0.148
G1 X95 F200
G2 X58.25 Y120 J36.75
G1 Y270
Y270.643
G3 X58.248 Y270.667 I-0.15 F100
G1 X58.131 Y271.407
X58.124 Y271.453 Z-1.493
X58.117 Y271.494 Z-1.471
X58.112 Y271.527 Z-1.438
X58.109 Y271.548 Z-1.396
X58.107 Y271.555 Z-1.35
G0 Z5
X57.907 Y271.645
G1 Z-1.365 F100
X57.906 Y271.639 Z-1.407
X57.903 Y271.62 Z-1.444
X57.899 Y271.59 Z-1.474
X57.893 Y271.553 Z-1.493
X57.886 Y271.512 Z-1.5
X57.752 Y270.663
G3 X57.75 Y270.64 I0.148 J-0.023
G1 Y120 F200
G3 X95 Y82.75 I37.25
G1 X215
X215.643
G3 X215.667 Y82.752 J0.15 F100
G1 X216.407 Y82.869
X216.453 Y82.876 Z-1.493
X216.494 Y82.883 Z-1.471
X216.527 Y82.888 Z-1.438
X216.548 Y82.891 Z-1.396
X216.555 Y82.893 Z-1.35
G0 Z15
M9
G28 G91 Z0
G28 X0 Y0
M30
%
