%
(contour-1-flat.nc)
(T1  D=3.14 CR=0 - ZMIN=-9.75 - flat end mill)
G90 G94
G17
G21
G28 G91 Z0
G90

(2D Contour1)
M9
T1 M6
S8000 M3
G54
M8
G0 X23.855 Y22.619
Z15
Z5
G1 Z2.819 F100
X23.861 Y22.624 Z2.749
X23.881 Y22.636 Z2.683
X23.913 Y22.655 Z2.623
X23.956 Y22.681 Z2.573
X24.007 Y22.712 Z2.536
X24.063 Y22.746 Z2.513
X24.123 Y22.783 Z2.505
X24.391 Y22.946
G3 X24.496 Y23.378 I-0.163 J0.268
G2 X18.43 Y44.945 Z-1.495 I35.504 J21.622
Y44.973 Z-1.499 I41.57 J0.055
Y45 Z-1.5 I41.57 J0.027
X101.57 I41.57 F200
X18.43 I-41.57
X25.436 Y68.095 Z-3 I41.57 F100
X94.564 Y21.905 I34.564 J-23.095 F200
X25.436 Y68.095 I-34.564 J23.095
X44.092 Y83.406 Z-4.5 I34.564 J-23.095 F100
X75.908 Y6.594 I15.908 J-38.406 F200
X44.092 Y83.406 I-15.908 J38.406
X68.11 Y85.771 Z-6 I15.908 J-38.406 F100
X51.89 Y4.229 I-8.11 J-40.771 F200
X68.11 Y85.771 I8.11 J40.771
X89.394 Y74.394 Z-7.5 I-8.11 J-40.771 F100
X30.606 Y15.606 I-29.394 J-29.394 F200
X89.394 Y74.394 I29.394 J29.394
X100.771 Y53.11 Z-9 I-29.394 J-29.394 F100
X19.229 Y36.89 I-40.771 J-8.11 F200
X100.771 Y53.11 I40.771 J8.11
X101.37 Y40.925 Z-9.75 I-40.771 J-8.11 F100
X18.63 Y49.075 I-41.37 J4.075 F200
X101.37 Y40.925 I41.37 J-4.075
G3 X101.652 Y40.582 I0.312 J-0.031 F100
G1 X101.964 Y40.551
X102.034 Y40.545 Z-9.742
X102.1 Y40.538 Z-9.719
X102.159 Y40.532 Z-9.681
X102.208 Y40.527 Z-9.632
X102.246 Y40.524 Z-9.572
X102.269 Y40.521 Z-9.506
X102.277 Z-9.436
G0 Z15
M9
G28 G91 Z0
G28 X0 Y0
M30
%
