%
(contour-1-flat.nc)
(T1  D=3.14 CR=0 - ZMIN=-9.75 - flat end mill)
G90 G94
G17
G21
G28 G91 Z0
G90

(2D Pocket1)
M9
T1 M6
S8000 M3
G54
M8
G0 X58.51 Y44.931
Z15
Z5
G1 Z2.811 F100
G3 X58.512 Y44.896 Z2.666 I1.49 J0.069
X58.522 Y44.798 Z2.554 I1.488 J0.104
X58.548 Y44.661 Z2.5 I1.478 J0.202
X61.452 Y45.339 Z1.883 I1.452 J0.339
X58.548 Y44.661 Z1.266 I-1.452 J-0.339
X61.452 Y45.339 Z0.649 I1.452 J0.339
X58.548 Y44.661 Z0.032 I-1.452 J-0.339
X61.452 Y45.339 Z-0.584 I1.452 J0.339
X58.548 Y44.661 Z-1.201 I-1.452 J-0.339
X60.267 Y43.533 Z-1.5 I1.452 J0.339
X60.817 Y44.163 I-0.12 J0.66
X60.835 Y45 I-19.298 J0.837
X59.165 I-0.835
X60.835 I0.835
G2 X61.37 Y46.001 I1.204
G3 X61.356 Y47.136 I-0.376 J0.563
X58.644 Y42.864 I-1.356 J-2.136
X61.356 Y47.136 I1.356 J2.136
X61.107 Y47.108 I-0.107 J-0.169
G1 X58.666 Y44.644
G3 X58.623 Y44.426 I0.142 J-0.141
X61.377 Y45.574 Z-2.117 I1.377 J0.574
X58.623 Y44.426 Z-2.734 I-1.377 J-0.574
X60.267 Y43.533 Z-3 I1.377 J0.574
X60.817 Y44.163 I-0.12 J0.66
X60.835 Y45 I-19.298 J0.837
X59.165 I-0.835
X60.835 I0.835
G2 X61.37 Y46.001 I1.204
G3 X61.356 Y47.136 I-0.376 J0.563
X58.644 Y42.864 I-1.356 J-2.136
X61.356 Y47.136 I1.356 J2.136
X61.107 Y47.108 I-0.107 J-0.169
G1 X58.666 Y44.644
G3 X58.623 Y44.426 I0.142 J-0.141
X61.377 Y45.574 Z-3.617 I1.377 J0.574
X58.623 Y44.426 Z-4.234 I-1.377 J-0.574
X60.267 Y43.533 Z-4.5 I1.377 J0.574
X60.817 Y44.163 I-0.12 J0.66
X60.835 Y45 I-19.298 J0.837
X59.165 I-0.835
X60.835 I0.835
G2 X61.37 Y46.001 I1.204
G3 X61.356 Y47.136 I-0.376 J0.563
X58.644 Y42.864 I-1.356 J-2.136
X61.356 Y47.136 I1.356 J2.136
X61.107 Y47.108 I-0.107 J-0.169
G1 X58.666 Y44.644
G3 X58.623 Y44.426 I0.142 J-0.141
X61.377 Y45.574 Z-5.117 I1.377 J0.574
X58.623 Y44.426 Z-5.734 I-1.377 J-0.574
X60.267 Y43.533 Z-6 I1.377 J0.574
X60.817 Y44.163 I-0.12 J0.66
X60.835 Y45 I-19.298 J0.837
X59.165 I-0.835
X60.835 I0.835
G2 X61.37 Y46.001 I1.204
G3 X61.356 Y47.136 I-0.376 J0.563
X58.644 Y42.864 I-1.356 J-2.136
X61.356 Y47.136 I1.356 J2.136
X61.107 Y47.108 I-0.107 J-0.169
G1 X58.666 Y44.644
G3 X58.623 Y44.426 I0.142 J-0.141
X61.377 Y45.574 Z-6.617 I1.377 J0.574
X58.623 Y44.426 Z-7.234 I-1.377 J-0.574
X60.267 Y43.533 Z-7.5 I1.377 J0.574
X60.817 Y44.163 I-0.12 J0.66
X60.835 Y45 I-19.298 J0.837
X59.165 I-0.835
X60.835 I0.835
G2 X61.37 Y46.001 I1.204
G3 X61.356 Y47.136 I-0.376 J0.563
X58.644 Y42.864 I-1.356 J-2.136
X61.356 Y47.136 I1.356 J2.136
X61.107 Y47.108 I-0.107 J-0.169
G1 X58.666 Y44.644
G3 X58.623 Y44.426 I0.142 J-0.141
X61.377 Y45.574 Z-8.117 I1.377 J0.574
X58.623 Y44.426 Z-8.734 I-1.377 J-0.574
X60.267 Y43.533 Z-9 I1.377 J0.574
X60.817 Y44.163 I-0.12 J0.66
X60.835 Y45 I-19.298 J0.837
X59.165 I-0.835
X60.835 I0.835
G2 X61.37 Y46.001 I1.204
G3 X61.356 Y47.136 I-0.376 J0.563
X58.644 Y42.864 I-1.356 J-2.136
X61.356 Y47.136 I1.356 J2.136
X61.05 Y46.983 I-0.107 J-0.169
G1 X61.008 Y46.47
G2 X60.713 Y46.31 I-0.199 J0.016
G3 X59.287 Y43.69 Z-9.617 I-0.713 J-1.31
X60.267 Y43.533 Z-9.75 I0.713 J1.31
X60.817 Y44.163 I-0.12 J0.66
X60.835 Y45 I-19.298 J0.837
X59.165 I-0.835
X60.835 I0.835
G2 X61.37 Y46.001 I1.204
G3 X61.356 Y47.136 I-0.376 J0.563
X58.644 Y42.864 I-1.356 J-2.136
X61.356 Y47.136 I1.356 J2.136
X61.245 Y47.179 Z-9.726 I-0.168 J-0.265
X61.144 Y47.182 Z-9.658 I-0.057 J-0.309
X61.078 Y47.165 Z-9.556 I0.044 J-0.311
X61.056 Y47.156 Z-9.436 I0.11 J-0.294
G0 Z15
M9
G28 G91 Z0
G28 X0 Y0
M30
%
