%
(contour-1-flat.nc)
(T1  D=1.5 CR=0 - ZMIN=-3.5 - flat end mill)
G90 G94
G17
G21
G28 G91 Z0
G90

(2D Pocket3)
M9
T1 M6
S8000 M3
G54
M8
G0 X24.32 Y110.515
Z15
Z5
G1 Z2.648 F100
G3 X24.296 Y110.49 Z2.551 I0.492 J-0.515
X24.239 Y110.422 Z2.5 I0.517 J-0.49
X25.386 Y109.578 Z2.105 I0.574 J-0.422
X24.239 Y110.422 Z1.711 I-0.574 J0.422
X25.386 Y109.578 Z1.316 I0.574 J-0.422
X24.239 Y110.422 Z0.921 I-0.574 J0.422
X25.386 Y109.578 Z0.527 I0.574 J-0.422
X24.239 Y110.422 Z0.132 I-0.574 J0.422
X25.386 Y109.578 Z-0.263 I0.574 J-0.422
X24.239 Y110.422 Z-0.658 I-0.574 J0.422
X25.386 Y109.578 Z-1.052 I0.574 J-0.422
X24.239 Y110.422 Z-1.447 I-0.574 J0.422
X25.386 Y109.578 Z-1.842 I0.574 J-0.422
X24.239 Y110.422 Z-2.236 I-0.574 J0.422
X25.386 Y109.578 Z-2.631 I0.574 J-0.422
X24.239 Y110.422 Z-3.026 I-0.574 J0.422
X25.386 Y109.578 Z-3.42 I0.574 J-0.422
X25.525 Y110 Z-3.5 I-0.574 J0.422
X24.475 I-0.525 F200
X26.95 I1.237
X23.05 I-1.95
X26.95 I1.95
X26.932 Y110.072 Z-3.48 I-0.15 F100
X26.897 Y110.114 Z-3.425 I-0.132 J-0.072
X26.881 Y110.126 Z-3.35 I-0.097 J-0.114
G0 Z15

(2D Contour1)
M8
X276.178 Y77.272
Z15
Z5
G1 Z2.6 F100
Z-1.45
X276.171 Z-1.496
X276.15 Y77.27 Z-1.538
X276.117 Y77.266 Z-1.571
X276.075 Y77.262 Z-1.593
X276.029 Y77.257 Z-1.6
X275.88 Y77.242
G3 X275.746 Y77.077 I0.015 J-0.149
G2 X275.75 Y77 I-0.746 J-0.077 F200
G1 Y5
G2 X275 Y4.25 I-0.75
G1 X125
G2 X34.705 Y85.925 J90.75
G3 X25.501 Y94.25 I-9.204 J-0.925
G1 X25
G2 Y125.75 J15.75
G3 X34.25 Y135 J9.25
G1 Y215
G2 X35 Y215.75 I0.75
G1 X107
G2 X107.75 Y215 J-0.75
G1 Y171.729
G2 X107.381 Y171.083 I-0.75
G3 Y120.679 I14.847 J-25.202
G2 X107.75 Y120.033 I-0.381 J-0.646
G1 Y95
G3 X125 Y77.75 I17.25
G1 X275
G2 X275.746 Y77.077 J-0.75
G3 X275.911 Y76.943 I0.149 J0.015 F100
G1 X276.06 Y76.959
X276.106 Y76.963 Z-1.593
X276.148 Y76.968 Z-1.571
X276.181 Y76.971 Z-1.538
X276.202 Y76.973 Z-1.496
X276.209 Y76.974 Z-1.45
X276.178 Y77.272
Z-2.4
X276.171 Z-2.446
X276.15 Y77.27 Z-2.488
X276.117 Y77.266 Z-2.521
X276.075 Y77.262 Z-2.543
X276.029 Y77.257 Z-2.55
X275.88 Y77.242
G3 X275.746 Y77.077 I0.015 J-0.149
G2 X275.75 Y77 I-0.746 J-0.077 F200
G1 Y5
G2 X275 Y4.25 I-0.75
G1 X125
G2 X34.705 Y85.925 J90.75
G3 X25.501 Y94.25 I-9.204 J-0.925
G1 X25
G2 Y125.75 J15.75
G3 X34.25 Y135 J9.25
G1 Y215
G2 X35 Y215.75 I0.75
G1 X107
G2 X107.75 Y215 J-0.75
G1 Y171.729
G2 X107.381 Y171.083 I-0.75
G3 Y120.679 I14.847 J-25.202
G2 X107.75 Y120.033 I-0.381 J-0.646
G1 Y95
G3 X125 Y77.75 I17.25
G1 X275
G2 X275.746 Y77.077 J-0.75
G3 X275.911 Y76.943 I0.149 J0.015 F100
G1 X276.06 Y76.959
X276.106 Y76.963 Z-2.543
X276.148 Y76.968 Z-2.521
X276.181 Y76.971 Z-2.488
X276.202 Y76.973 Z-2.446
X276.209 Y76.974 Z-2.4
X276.178 Y77.272
Z-3.35
X276.171 Z-3.396
X276.15 Y77.27 Z-3.438
X276.117 Y77.266 Z-3.471
X276.075 Y77.262 Z-3.493
X276.029 Y77.257 Z-3.5
X275.88 Y77.242
G3 X275.746 Y77.077 I0.015 J-0.149
G2 X275.75 Y77 I-0.746 J-0.077 F200
G1 Y42.75
Z-3.125
Y39.25
Z-3.5 F100
Y5 F200
G2 X275 Y4.25 I-0.75
G1 X251.75
Z-3.125
X248.25
Z-3.5
X201.75
Z-3.125
X198.25
Z-3.5
X151.75
Z-3.125
X148.25
Z-3.5
X125
G2 X94.021 Y9.701 J90.75
G1 Z-3.125
G2 X90.755 Y10.959 I30.979 J85.299
G1 Z-3.5 F100
G2 X44.805 Y52.522 I34.245 J84.041 F200
G1 Z-3.125
G2 X43.227 Y55.646 I80.195 J42.478
G1 Z-3.5 F100
G2 X34.705 Y85.925 I81.773 J39.354 F200
G3 X25.501 Y94.25 I-9.204 J-0.925
G1 X25
G2 Y125.75 J15.75
G3 X34.25 Y135 J9.25
G1 Y173.25
Z-3.125
Y176.75
Z-3.5 F100
Y215 F200
G2 X35 Y215.75 I0.75
G1 X69.25
Z-3.125
X72.75
Z-3.5 F100
X107 F200
G2 X107.75 Y215 J-0.75
G1 Y171.729
G2 X107.381 Y171.083 I-0.75
G3 X93.03 Y147.631 I14.847 J-25.202
G1 Z-3.125
G3 Y144.131 I29.198 J-1.75
G1 Z-3.5 F100
G3 X107.381 Y120.679 I29.198 J1.75 F200
G2 X107.75 Y120.033 I-0.381 J-0.646
G1 Y95
G3 X125 Y77.75 I17.25
G1 X148.25
Z-3.125
X151.75
Z-3.5 F100
X198.25 F200
Z-3.125
X201.75
Z-3.5 F100
X248.25 F200
Z-3.125
X251.75
Z-3.5 F100
X275 F200
G2 X275.746 Y77.077 J-0.75
G3 X275.911 Y76.943 I0.149 J0.015 F100
G1 X276.06 Y76.959
X276.106 Y76.963 Z-3.493
X276.148 Y76.968 Z-3.471
X276.181 Y76.971 Z-3.438
X276.202 Y76.973 Z-3.396
X276.209 Y76.974 Z-3.35
G0 Z15
M9
G28 G91 Z0
G28 X0 Y0
M30
%
