%
(contour-1-flat.nc)
(T1  D=1.5 CR=0 - ZMIN=-1.5 - flat end mill)
G90 G94
G17
G21
G28 G91 Z0
G90

(2D Pocket1)
M9
T1 M6
S8000 M3
G54
M8
G0 X276.638 Y14.094
Z15
Z5
G1 Z-1.365 F100
X276.632 Y14.095 Z-1.407
X276.613 Y14.098 Z-1.444
X276.583 Y14.103 Z-1.474
X276.546 Y14.108 Z-1.493
X276.505 Y14.115 Z-1.5
X275.664 Y14.248
G3 X275.64 Y14.25 I-0.023 J-0.148
G1 X125 F200
G2 X44.25 Y95 J80.75
G1 Y215
Y215.643
G3 X44.248 Y215.667 I-0.15 F100
G1 X44.131 Y216.407
X44.124 Y216.453 Z-1.493
X44.117 Y216.494 Z-1.471
X44.112 Y216.527 Z-1.438
X44.109 Y216.548 Z-1.396
X44.107 Y216.555 Z-1.35
G0 Z5
X43.907 Y216.646
G1 Z-1.365 F100
X43.906 Y216.639 Z-1.407
X43.903 Y216.62 Z-1.444
X43.899 Y216.591 Z-1.474
X43.893 Y216.554 Z-1.493
X43.886 Y216.512 Z-1.5
X43.752 Y215.664
G3 X43.75 Y215.64 I0.148 J-0.023
G1 Y95 F200
G3 X125 Y13.75 I81.25
G1 X275
X275.643
G3 X275.667 Y13.752 J0.15 F100
G1 X276.407 Y13.869
X276.453 Y13.876 Z-1.493
X276.494 Y13.883 Z-1.471
X276.527 Y13.888 Z-1.438
X276.548 Y13.891 Z-1.396
X276.555 Y13.893 Z-1.35
G0 Z15
X276.637 Y58.094
Z5
G1 Z-1.365 F100
X276.631 Y58.095 Z-1.407
X276.612 Y58.098 Z-1.444
X276.582 Y58.103 Z-1.474
X276.545 Y58.108 Z-1.493
X276.504 Y58.115 Z-1.5
X275.663 Y58.248
G3 X275.64 Y58.25 I-0.023 J-0.148
G1 X125 F200
G2 X88.25 Y95 J36.75
G1 Y215
Y215.643
G3 X88.248 Y215.667 I-0.15 F100
G1 X88.131 Y216.407
X88.124 Y216.453 Z-1.493
X88.117 Y216.494 Z-1.471
X88.112 Y216.527 Z-1.438
X88.109 Y216.548 Z-1.396
X88.107 Y216.555 Z-1.35
G0 Z5
X87.907 Y216.645
G1 Z-1.365 F100
X87.906 Y216.639 Z-1.407
X87.903 Y216.62 Z-1.444
X87.899 Y216.59 Z-1.474
X87.893 Y216.553 Z-1.493
X87.886 Y216.512 Z-1.5
X87.752 Y215.663
G3 X87.75 Y215.64 I0.148 J-0.023
G1 Y95 F200
G3 X125 Y57.75 I37.25
G1 X275
X275.643
G3 X275.667 Y57.752 J0.15 F100
G1 X276.407 Y57.869
X276.453 Y57.876 Z-1.493
X276.494 Y57.883 Z-1.471
X276.527 Y57.888 Z-1.438
X276.548 Y57.891 Z-1.396
X276.555 Y57.893 Z-1.35
G0 Z15
M9
G28 G91 Z0
G28 X0 Y0
M30
%
