; generated by Slic3r 1.2.9 on 2018-01-03 at 12:02:33

; external perimeters extrusion width = 0.50mm
; perimeters extrusion width = 0.85mm
; infill extrusion width = 1.02mm
; solid infill extrusion width = 0.85mm
; top infill extrusion width = 0.85mm
; support material extrusion width = 0.50mm

M107
M190 S65 ; set bed temperature
M104 S200 ; set temperature
G1 Z5 F5000 ; lift nozzle

M109 S200 ; wait for temperature to be reached
G21 ; set units to millimeters
G90 ; use absolute coordinates
M82 ; use absolute distances for extrusion
G92 E0
G1 Z0.400 F6000.000
G1 E-2.00000 F2400.00000
G92 E0
G1 X69.220 Y65.977 F6000.000
G1 E2.00000 F2400.00000
G1 X71.268 Y64.044 E2.33446 F1200.000
G1 X73.335 Y62.308 E2.65502
G1 X73.800 Y61.940 E2.72548
G1 X76.076 Y60.282 E3.05994
G1 X78.038 Y59.007 E3.33785
G1 X80.478 Y57.601 E3.67231
G1 X82.997 Y56.340 E4.00677
G1 X85.584 Y55.229 E4.34123
G1 X88.233 Y54.271 E4.67568
G1 X90.932 Y53.470 E5.01014
G1 X91.393 Y53.350 E5.06671
G1 X94.141 Y52.735 E5.40117
G1 X96.449 Y52.347 E5.67909
G1 X99.247 Y52.029 E6.01354
G1 X102.059 Y51.876 E6.34801
G1 X104.758 Y51.886 E6.66856
G1 X105.351 Y51.905 E6.73902 F1200.000
G1 X107.686 Y52.063 E7.01693
G1 X110.481 Y52.403 E7.35139
G1 X113.252 Y52.905 E7.68585
G1 X113.718 Y53.006 E7.74242
G1 X116.448 Y53.697 E8.07688
G1 X119.133 Y54.547 E8.41133
G1 X121.323 Y55.371 E8.68925
G1 X123.865 Y56.486 E9.01893
G1 X124.331 Y56.709 E9.08027
G1 X126.410 Y57.783 E9.35818
G1 X128.839 Y59.208 E9.69264
G1 X131.180 Y60.773 E10.02710
G1 X133.333 Y62.400 E10.34766
G1 X133.796 Y62.772 E10.41812
G1 X135.921 Y64.620 E10.75258
G1 X137.602 Y66.248 E11.03049
G1 X139.517 Y68.313 E11.36495
G1 X141.307 Y70.486 E11.69941
G1 X142.968 Y72.761 E12.03386
G1 X143.632 Y73.850 E12.18537
G1 X143.862 Y74.304 E12.24580
G1 X144.556 Y76.256 E12.49182
G1 X144.664 Y76.753 E12.55226
G1 X144.849 Y78.481 E12.75865
G1 X144.849 Y121.519 E17.87008
G1 X144.664 Y123.247 E18.07648
G1 X144.556 Y123.744 E18.13691
G1 X143.862 Y125.696 E18.38294
G1 X143.632 Y126.150 E18.44337
G1 X142.968 Y127.239 E18.59487
G1 X141.598 Y129.136 E18.87278
G1 X139.828 Y131.327 E19.20724
G1 X139.517 Y131.687 E19.26381
G1 X137.602 Y133.752 E19.59827
G1 X135.569 Y135.701 E19.93273
G1 X133.796 Y137.228 E20.21064
G1 X131.567 Y138.949 E20.54510
G1 X131.180 Y139.227 E20.60167
G1 X128.839 Y140.792 E20.93613
G1 X126.826 Y141.986 E21.21403
G1 X124.331 Y143.291 E21.54849
G1 X121.764 Y144.448 E21.88295
G1 X121.323 Y144.629 E21.93952
G1 X119.133 Y145.453 E22.21743
G1 X116.560 Y146.268 E22.53799
G1 X115.989 Y146.431 E22.60845
G1 X113.718 Y146.994 E22.88636
G1 X111.067 Y147.502 E23.20693
G1 X110.481 Y147.597 E23.27739
G1 X108.160 Y147.891 E23.55529
G1 X105.351 Y148.095 E23.88975
G1 X104.875 Y148.113 E23.94633
G1 X102.059 Y148.124 E24.28078
G1 X99.722 Y148.008 E24.55869
G1 X96.921 Y147.718 E24.89315
G1 X94.141 Y147.265 E25.22761
G1 X93.674 Y147.172 E25.28418
G1 X91.393 Y146.650 E25.56209
G1 X88.686 Y145.875 E25.89655
G1 X86.028 Y144.944 E26.23100
G1 X85.584 Y144.771 E26.28758
G1 X83.430 Y143.858 E26.56549
G1 X80.899 Y142.622 E26.89994
G1 X78.445 Y141.241 E27.23440
G1 X76.076 Y139.718 E27.56886
G1 X75.684 Y139.447 E27.62543
G1 X73.800 Y138.060 E27.90334
G1 X71.625 Y136.271 E28.23780
G1 X69.558 Y134.358 E28.57225
G1 X69.220 Y134.023 E28.62883
G1 X67.607 Y132.328 E28.90674
G1 X65.777 Y130.187 E29.24120
G1 X64.076 Y127.943 E29.57565
G1 X63.802 Y127.553 E29.63223
G1 X62.510 Y125.602 E29.91013
G1 X61.141 Y123.276 E30.23070
G1 X60.855 Y122.756 E30.30116
G1 X59.799 Y120.668 E30.57907
G1 X59.597 Y120.237 E30.63564
G1 X58.488 Y117.648 E30.97010
G1 X57.684 Y115.451 E31.24801
G1 X56.858 Y112.758 E31.58246
G1 X56.192 Y110.022 E31.91692
G1 X56.095 Y109.556 E31.97349
G1 X55.686 Y107.252 E32.25140
G1 X55.344 Y104.457 E32.58586
G1 X55.172 Y101.763 E32.90642
G1 X55.151 Y101.170 E32.97688
G1 X55.165 Y98.354 E33.31134
G1 X55.302 Y96.018 E33.58926
G1 X55.617 Y93.219 E33.92371
G1 X55.686 Y92.748 E33.98028
G1 X56.095 Y90.444 E34.25820
G1 X56.734 Y87.702 E34.59265
G1 X57.499 Y85.113 E34.91321
G1 X57.684 Y84.549 E34.98367
G1 X58.488 Y82.352 E35.26159
G1 X59.597 Y79.763 E35.59604
G1 X60.802 Y77.348 E35.91660
G1 X61.082 Y76.825 E35.98706
G1 X62.258 Y74.802 E36.26497
G1 X63.802 Y72.447 E36.59943
G1 X65.410 Y70.279 E36.91999
G1 X65.777 Y69.813 E36.99045
G1 X67.289 Y68.027 E37.26837
G1 X69.168 Y66.031 E37.59392
G1 X69.737 Y66.469 F6000.000
G1 X71.755 Y64.565 E37.92342 F1200.000
G1 X73.791 Y62.858 E38.23902
G1 X74.223 Y62.515 E38.30452
G1 X76.465 Y60.880 E38.63402
G1 X78.798 Y59.380 E38.96351
G1 X81.216 Y58.018 E39.29301
G1 X83.313 Y56.981 E39.57092
G1 X85.863 Y55.887 E39.90042
G1 X88.472 Y54.944 E40.22992
G1 X91.132 Y54.156 E40.55941
G1 X93.720 Y53.550 E40.87502
G1 X94.260 Y53.439 E40.94052
G1 X96.568 Y53.051 E41.21843
G1 X99.324 Y52.739 E41.54793
G1 X102.095 Y52.589 E41.87743
G1 X104.752 Y52.600 E42.19303
G1 X105.303 Y52.618 E42.25853 F1200.000
G1 X107.638 Y52.775 E42.53643
G1 X110.392 Y53.111 E42.86593
G1 X113.121 Y53.607 E43.19543
G1 X113.546 Y53.700 E43.24704
G1 X116.236 Y54.379 E43.57654
G1 X118.881 Y55.215 E43.90604
G1 X121.071 Y56.039 E44.18395
G1 X123.575 Y57.139 E44.50867
G1 X124.003 Y57.343 E44.56505
G1 X126.082 Y58.418 E44.84297
G1 X128.474 Y59.822 E45.17246
G1 X130.781 Y61.364 E45.50196
G1 X132.900 Y62.968 E45.81756
G1 X133.330 Y63.313 E45.88306
G1 X135.424 Y65.133 E46.21256
G1 X137.105 Y66.761 E46.49047
G1 X138.990 Y68.796 E46.81996
G1 X140.754 Y70.938 E47.14946
G1 X142.389 Y73.179 E47.47896
G1 X142.995 Y74.173 E47.61718
G1 X143.225 Y74.627 E47.67761
G1 X143.858 Y76.407 E47.90206
G1 X143.966 Y76.905 E47.96249
G1 X144.135 Y78.481 E48.15078
G1 X144.135 Y121.519 E53.26221
G1 X143.966 Y123.095 E53.45051
G1 X143.858 Y123.593 E53.51094
G1 X143.225 Y125.373 E53.73539
G1 X142.995 Y125.827 E53.79582
G1 X142.389 Y126.821 E53.93404
G1 X141.019 Y128.718 E54.21194
G1 X139.275 Y130.876 E54.54144
G1 X138.990 Y131.204 E54.59305
G1 X137.105 Y133.239 E54.92255
G1 X135.103 Y135.160 E55.25205
G1 X133.330 Y136.687 E55.52995
G1 X131.134 Y138.382 E55.85945
G1 X130.781 Y138.636 E55.91106
G1 X128.474 Y140.178 E56.24056
G1 X126.462 Y141.372 E56.51847
G1 X124.003 Y142.657 E56.84797
G1 X121.473 Y143.796 E57.17746
G1 X121.071 Y143.961 E57.22908
G1 X118.881 Y144.785 E57.50699
G1 X116.348 Y145.586 E57.82259
G1 X115.817 Y145.737 E57.88809
G1 X113.546 Y146.300 E58.16599
G1 X110.936 Y146.800 E58.48160
G1 X110.392 Y146.889 E58.54710
G1 X108.070 Y147.183 E58.82500
G1 X105.303 Y147.382 E59.15450
G1 X104.869 Y147.399 E59.20612
G1 X102.095 Y147.411 E59.53561
G1 X99.757 Y147.295 E59.81352
G1 X96.998 Y147.008 E60.14302
G1 X94.260 Y146.561 E60.47252
G1 X93.834 Y146.476 E60.52413
G1 X91.553 Y145.954 E60.80203
G1 X88.886 Y145.190 E61.13153
G1 X86.268 Y144.271 E61.46103
G1 X85.863 Y144.113 E61.51264
G1 X83.708 Y143.200 E61.79055
G1 X81.216 Y141.982 E62.12004
G1 X78.798 Y140.620 E62.44954
G1 X76.465 Y139.120 E62.77904
G1 X76.108 Y138.872 E62.83065
G1 X73.881 Y137.217 E63.16015
G1 X72.081 Y135.722 E63.43806
G1 X70.046 Y133.837 E63.76755
G1 X69.737 Y133.531 E63.81917
G1 X67.834 Y131.512 E64.14866
G1 X66.323 Y129.726 E64.42657
G1 X66.052 Y129.386 E64.47818
G1 X64.397 Y127.159 E64.80768
G1 X63.105 Y125.208 E65.08559
G1 X61.759 Y122.917 E65.40119
G1 X61.492 Y122.434 E65.46669
G1 X60.437 Y120.346 E65.74460
G1 X60.252 Y119.952 E65.79621
G1 X59.159 Y117.402 E66.12571
G1 X58.354 Y115.205 E66.40362
G1 X57.542 Y112.552 E66.73311
G1 X56.886 Y109.857 E67.06261
G1 X56.798 Y109.431 E67.11422
G1 X56.326 Y106.697 E67.44372
G1 X56.053 Y104.373 E67.72163
G1 X55.885 Y101.721 E68.03723
G1 X55.865 Y101.170 E68.10273
G1 X55.865 Y98.830 E68.38064
G1 X56.015 Y96.060 E68.71015
G1 X56.326 Y93.303 E69.03964
G1 X56.389 Y92.873 E69.09124
G1 X56.798 Y90.569 E69.36916
G1 X57.429 Y87.867 E69.69866
G1 X58.183 Y85.319 E70.01425
G1 X58.354 Y84.795 E70.07975
G1 X59.159 Y82.598 E70.35767
G1 X60.252 Y80.048 E70.68716
G1 X61.440 Y77.670 E71.00276
G1 X61.700 Y77.184 E71.06826
G1 X62.876 Y75.161 E71.34617
G1 X64.397 Y72.841 E71.67567
G1 X65.982 Y70.708 E71.99127
G1 X66.323 Y70.274 E72.05677
G1 X67.834 Y68.488 E72.33469
G1 X69.686 Y66.524 E72.65528
G1 X70.255 Y66.962 F6000.000
G1 X72.243 Y65.087 E72.97981 F1200.000
G1 X74.248 Y63.407 E73.29045
G1 X74.647 Y63.090 E73.35099
G1 X76.854 Y61.479 E73.67553
G1 X78.816 Y60.204 E73.95344
G1 X81.185 Y58.842 E74.27798
G1 X83.630 Y57.621 E74.60252
G1 X86.141 Y56.545 E74.92706
G1 X88.712 Y55.617 E75.25159
G1 X91.332 Y54.841 E75.57613
G1 X94.378 Y54.144 E75.94729
G1 X96.686 Y53.756 E76.22521
G1 X99.401 Y53.449 E76.54974
G1 X102.130 Y53.302 E76.87429
G1 X104.746 Y53.314 E77.18492
G1 X105.255 Y53.330 E77.24546 F1200.000
G1 X107.590 Y53.488 E77.52337
G1 X110.302 Y53.820 E77.84790
G1 X112.990 Y54.309 E78.17244
G1 X116.024 Y55.061 E78.54361
G1 X118.630 Y55.884 E78.86814
G1 X120.820 Y56.708 E79.14605
G1 X123.284 Y57.791 E79.46582
G1 X125.754 Y59.052 E79.79513
G1 X128.110 Y60.436 E80.11967
G1 X130.381 Y61.956 E80.44420
G1 X132.864 Y63.854 E80.81536
G1 X134.927 Y65.646 E81.13990
G1 X136.608 Y67.274 E81.41781
G1 X138.464 Y69.279 E81.74235
G1 X140.201 Y71.389 E82.06688
G1 X141.810 Y73.597 E82.39142
G1 X142.358 Y74.495 E82.51635
G1 X142.588 Y74.949 E82.57678
G1 X143.160 Y76.559 E82.77965
G1 X143.268 Y77.056 E82.84008
G1 X143.421 Y78.481 E83.01027
G1 X143.421 Y121.519 E88.12171
G1 X143.268 Y122.944 E88.29189
G1 X143.160 Y123.441 E88.35233
G1 X142.588 Y125.051 E88.55520
G1 X142.358 Y125.505 E88.61563
G1 X141.810 Y126.403 E88.74056
G1 X140.440 Y128.299 E89.01847
G1 X138.464 Y130.721 E89.38963
G1 X136.608 Y132.726 E89.71417
G1 X134.637 Y134.619 E90.03871
G1 X132.864 Y136.146 E90.31661
G1 X130.700 Y137.814 E90.64115
G1 X128.110 Y139.564 E91.01231
G1 X126.098 Y140.758 E91.29022
G1 X123.675 Y142.022 E91.61476
G1 X120.820 Y143.292 E91.98593
G1 X118.630 Y144.116 E92.26383
G1 X116.024 Y144.939 E92.58837
G1 X112.990 Y145.690 E92.95953
G1 X110.302 Y146.180 E93.28407
G1 X107.981 Y146.474 E93.56198
G1 X105.255 Y146.670 E93.88652
G1 X102.130 Y146.698 E94.25768
G1 X99.793 Y146.582 E94.53559
G1 X97.075 Y146.298 E94.86013
G1 X93.993 Y145.780 E95.23129
G1 X91.712 Y145.258 E95.50920
G1 X89.085 Y144.504 E95.83373
G1 X86.141 Y143.455 E96.20490
G1 X83.987 Y142.543 E96.48281
G1 X81.532 Y141.342 E96.80734
G1 X79.152 Y140.000 E97.13188
G1 X76.531 Y138.297 E97.50305
G1 X74.647 Y136.910 E97.78095
G1 X72.538 Y135.173 E98.10549
G1 X70.255 Y133.038 E98.47665
G1 X68.379 Y131.051 E98.80119
G1 X66.868 Y129.264 E99.07910
G1 X64.993 Y126.764 E99.45026
G1 X63.700 Y124.814 E99.72817
G1 X62.317 Y122.457 E100.05271
G1 X60.907 Y119.668 E100.42387
G1 X59.975 Y117.522 E100.70178
G1 X59.065 Y115.069 E101.01242
G1 X58.901 Y114.587 E101.07296
G1 X58.226 Y112.346 E101.35087
G1 X57.501 Y109.306 E101.72203
G1 X57.093 Y107.002 E101.99994
G1 X56.762 Y104.290 E102.32448
G1 X56.579 Y101.170 E102.69564
G1 X56.591 Y98.437 E103.02018
G1 X56.728 Y96.101 E103.29810
G1 X57.093 Y92.998 E103.66925
G1 X57.501 Y90.694 E103.94717
G1 X58.124 Y88.033 E104.27170
G1 X59.025 Y85.040 E104.64286
G1 X59.830 Y82.843 E104.92077
G1 X60.907 Y80.332 E105.24531
G1 X62.317 Y77.543 E105.61647
G1 X63.493 Y75.520 E105.89438
G1 X64.993 Y73.236 E106.21891
G1 X66.868 Y70.736 E106.59008
G1 X68.379 Y68.949 E106.86799
G1 X70.203 Y67.016 E107.18362
G1 E105.18362 F2400.00000
G92 E0
G1 X118.998 Y100.672 F6000.000
G1 E2.00000 F2400.00000
G1 X119.445 Y104.037 E2.40319 F1200.000
G1 X119.795 Y105.729 E2.60841
G1 X120.263 Y107.389 E2.81326
G1 X120.887 Y109.100 E3.02950
G1 X121.553 Y110.597 E3.22405
G1 X122.365 Y112.122 E3.42927
G1 X123.285 Y113.585 E3.63449
G1 X124.306 Y114.978 E3.83971
G1 X125.425 Y116.295 E4.04493
G1 X126.635 Y117.529 E4.25015
G1 X127.930 Y118.673 E4.45537
G1 X129.418 Y119.810 E4.67782
G1 X130.006 Y120.346 E4.77226
G1 X130.526 Y121.130 E4.88404
G1 X130.840 Y122.017 E4.99582
G1 X130.930 Y122.954 E5.10760
G1 X130.788 Y123.884 E5.21938
G1 X130.425 Y124.753 E5.33116
G1 X129.912 Y125.439 E5.43289
G1 X128.215 Y127.101 E5.71505
G1 X126.479 Y128.601 E5.98755
G1 X124.564 Y130.049 E6.27263
G1 X122.751 Y131.259 E6.53155
G1 X120.769 Y132.410 E6.80372
G1 X118.719 Y133.435 E7.07590
G1 X116.610 Y134.331 E7.34807
G1 X114.449 Y135.094 E7.62025
G1 X112.245 Y135.721 E7.89242
G1 X110.006 Y136.209 E8.16459
G1 X107.659 Y136.570 E8.44654
G1 X106.805 Y136.571 E8.54800
G1 X105.885 Y136.333 E8.66082
G1 X105.095 Y135.919 E8.76674
G1 X104.402 Y135.305 E8.87678
G1 X103.875 Y134.543 E8.98682
G1 X103.546 Y133.676 E9.09685
G1 X103.466 Y133.016 E9.17581
G1 X103.087 Y133.016 E9.22089
G1 X103.006 Y133.676 E9.29985
G1 X102.678 Y134.543 E9.40989
G1 X102.151 Y135.305 E9.51993
G1 X101.458 Y135.919 E9.62997
G1 X100.637 Y136.349 E9.74001
G1 X99.737 Y136.571 E9.85004
G1 X98.893 Y136.570 E9.95025
G1 X96.538 Y136.207 E10.23335
G1 X94.289 Y135.716 E10.50668
G1 X92.076 Y135.085 E10.78001
G1 X89.907 Y134.317 E11.05334
G1 X87.789 Y133.415 E11.32667
G1 X85.732 Y132.382 E11.60000
G1 X83.744 Y131.223 E11.87333
G1 X81.832 Y129.942 E12.14666
G1 X80.004 Y128.544 E12.42000
G1 X78.266 Y127.035 E12.69333
G1 X76.627 Y125.420 E12.96666
G1 X75.091 Y123.706 E13.23999
G1 X73.665 Y121.899 E13.51332
G1 X72.355 Y120.007 E13.78665
G1 X71.165 Y118.035 E14.06021
G1 X70.070 Y115.924 E14.34266
G1 X69.168 Y113.893 E14.60663
G1 X68.367 Y111.735 E14.87996
G1 X67.702 Y109.532 E15.15329
G1 X67.176 Y107.291 E15.42662
G1 X66.777 Y104.940 E15.70984
G1 X66.765 Y104.078 E15.81219
G1 X66.993 Y103.147 E15.92603
G1 X67.403 Y102.346 E16.03291
G1 X68.017 Y101.642 E16.14394
G1 X68.784 Y101.106 E16.25497
G1 X69.657 Y100.772 E16.36601
G1 X70.473 Y100.672 E16.46368
G1 X92.261 Y100.672 E19.05130
G1 X93.055 Y100.766 E19.14631
G1 X93.907 Y101.083 E19.25430
G1 X94.661 Y101.592 E19.36230
G1 X95.275 Y102.263 E19.47029
G1 X95.637 Y102.921 E19.55954
G1 X96.069 Y103.846 E19.68080
G1 X96.516 Y104.586 E19.78342
G1 X97.038 Y105.274 E19.88604
G1 X97.630 Y105.904 E19.98866
G1 X98.285 Y106.467 E20.09128
G1 X98.996 Y106.958 E20.19390
G1 X99.755 Y107.371 E20.29652
G1 X100.702 Y107.764 E20.41826
G1 X101.401 Y108.113 E20.51108
G1 X102.117 Y108.727 E20.62314
G1 X102.662 Y109.497 E20.73520
G1 X103.003 Y110.377 E20.84726
G1 X103.087 Y111.058 E20.92873
G1 X103.466 Y111.058 E20.97371
G1 X103.550 Y110.377 E21.05518
G1 X103.891 Y109.497 E21.16724
G1 X104.435 Y108.727 E21.27930
G1 X105.151 Y108.113 E21.39136
G1 X105.851 Y107.764 E21.48418
G1 X106.798 Y107.371 E21.60592
G1 X107.557 Y106.958 E21.70854
G1 X108.268 Y106.467 E21.81116
G1 X108.923 Y105.904 E21.91378
G1 X109.515 Y105.274 E22.01640
G1 X110.037 Y104.586 E22.11902
G1 X110.483 Y103.846 E22.22164
G1 X110.916 Y102.921 E22.34289
G1 X111.278 Y102.263 E22.43215
G1 X111.891 Y101.592 E22.54014
G1 X112.645 Y101.083 E22.64814
G1 X113.498 Y100.766 E22.75613
G1 X114.292 Y100.672 E22.85114
G1 X118.923 Y100.672 E23.40118
G1 X118.373 Y101.386 F6000.000
G1 X118.741 Y104.156 E23.73311 F1200.000
G1 X119.100 Y105.899 E23.94439
G1 X119.583 Y107.609 E24.15546
G1 X120.225 Y109.367 E24.37775
G1 X120.910 Y110.910 E24.57823
G1 X121.747 Y112.480 E24.78952
G1 X122.694 Y113.986 E25.00081
G1 X123.745 Y115.421 E25.21210
G1 X124.897 Y116.777 E25.42338
G1 X126.143 Y118.047 E25.63467
G1 X127.476 Y119.225 E25.84596
G1 X128.960 Y120.359 E26.06774
G1 X129.459 Y120.814 E26.14802
G1 X129.882 Y121.451 E26.23887
G1 X130.138 Y122.172 E26.32972
G1 X130.210 Y122.934 E26.42056
G1 X130.095 Y123.690 E26.51141
G1 X129.800 Y124.396 E26.60226
G1 X129.373 Y124.967 E26.68698
G1 X127.731 Y126.575 E26.95996
G1 X126.029 Y128.046 E27.22705
G1 X124.150 Y129.467 E27.50685
G1 X122.373 Y130.653 E27.76061
G1 X120.430 Y131.781 E28.02751
G1 X118.420 Y132.786 E28.29440
G1 X116.351 Y133.665 E28.56129
G1 X114.232 Y134.413 E28.82819
G1 X112.071 Y135.028 E29.09508
G1 X109.875 Y135.507 E29.36198
G1 X107.604 Y135.856 E29.63483
G1 X106.895 Y135.856 E29.71903
G1 X106.144 Y135.662 E29.81125
G1 X105.504 Y135.327 E29.89705
G1 X104.940 Y134.828 E29.98648
G1 X104.512 Y134.208 E30.07591
G1 X104.245 Y133.504 E30.16535
G1 X104.162 Y132.824 E30.24671
G1 X104.162 Y111.245 E32.80955
G1 X104.248 Y110.553 E32.89241
G1 X104.525 Y109.838 E32.98348
G1 X104.967 Y109.211 E33.07455
G1 X105.549 Y108.712 E33.16563
