; generated by Slic3r 1.2.9 on 2018-01-07 at 13:45:58

; external perimeters extrusion width = 0.50mm
; perimeters extrusion width = 0.64mm
; infill extrusion width = 0.64mm
; solid infill extrusion width = 0.64mm
; top infill extrusion width = 0.64mm
; support material extrusion width = 0.50mm

M107
M190 S65 ; set bed temperature
M104 S200 ; set temperature
G28 ; home all axes
G1 Z5 F5000 ; lift nozzle

M109 S200 ; wait for temperature to be reached
G21 ; set units to millimeters
G90 ; use absolute coordinates
M82 ; use absolute distances for extrusion
G92 E0
G1 Z0.400 F6000.000
G1 E-2.00000 F2400.00000
G92 E0
G1 X75.883 Y75.883 F6000.000
G1 E2.00000 F2400.00000
G1 X76.845 Y74.921 E2.16161 F1200.000
G1 X77.478 Y74.350 E2.26283
G1 X79.593 Y72.638 E2.58605
G1 X80.283 Y72.137 E2.68727
G1 X82.565 Y70.654 E3.01048
G1 X83.303 Y70.228 E3.11171
G1 X85.728 Y68.993 E3.43492
G1 X86.507 Y68.646 E3.53614
G1 X89.048 Y67.671 E3.85936
G1 X89.858 Y67.407 E3.96058
G1 X92.487 Y66.703 E4.28380
G1 X93.321 Y66.526 E4.38502
G1 X96.009 Y66.100 E4.70824
G1 X96.856 Y66.011 E4.80946
G1 X99.574 Y65.869 E5.13268
G1 X100.426 Y65.869 E5.23390
G1 X103.144 Y66.011 E5.55712 F1200.000
G1 X103.992 Y66.100 E5.65833
G1 X106.680 Y66.526 E5.98156
G1 X107.513 Y66.703 E6.08277
G1 X110.142 Y67.407 E6.40599
G1 X110.952 Y67.671 E6.50721
G1 X113.493 Y68.646 E6.83043
G1 X114.272 Y68.993 E6.93165
G1 X116.697 Y70.228 E7.25487
G1 X117.435 Y70.654 E7.35609
G1 X119.717 Y72.137 E7.67930
G1 X120.407 Y72.638 E7.78052
G1 X122.522 Y74.350 E8.10374
G1 X123.155 Y74.921 E8.20496
G1 X125.079 Y76.845 E8.52818
G1 X125.650 Y77.478 E8.62940
G1 X127.362 Y79.593 E8.95262
G1 X127.863 Y80.283 E9.05384
G1 X129.346 Y82.565 E9.37706
G1 X129.772 Y83.303 E9.47828
G1 X131.007 Y85.728 E9.80149
G1 X131.354 Y86.507 E9.90272
G1 X132.329 Y89.048 E10.22593
G1 X132.593 Y89.858 E10.32715
G1 X133.297 Y92.487 E10.65037
G1 X133.474 Y93.321 E10.75159
G1 X133.900 Y96.008 E11.07481
G1 X133.989 Y96.856 E11.17603
G1 X134.131 Y99.574 E11.49925
G1 X134.131 Y100.426 E11.60047
G1 X133.989 Y103.144 E11.92368
G1 X133.900 Y103.992 E12.02491
G1 X133.474 Y106.679 E12.34812
G1 X133.297 Y107.513 E12.44934
G1 X132.593 Y110.142 E12.77256
G1 X132.329 Y110.952 E12.87378
G1 X131.354 Y113.493 E13.19700
G1 X131.007 Y114.272 E13.29822
G1 X129.772 Y116.697 E13.62143
G1 X129.346 Y117.435 E13.72266
G1 X127.863 Y119.717 E14.04588
G1 X127.362 Y120.407 E14.14709
G1 X125.650 Y122.522 E14.47031
G1 X125.079 Y123.155 E14.57153
G1 X123.155 Y125.079 E14.89475
G1 X122.522 Y125.650 E14.99597
G1 X120.407 Y127.362 E15.31919
G1 X119.717 Y127.863 E15.42041
G1 X117.435 Y129.346 E15.74363
G1 X116.697 Y129.772 E15.84485
G1 X114.272 Y131.007 E16.16807
G1 X113.493 Y131.354 E16.26929
G1 X110.952 Y132.329 E16.59250
G1 X110.142 Y132.593 E16.69372
G1 X107.513 Y133.297 E17.01694
G1 X106.679 Y133.474 E17.11816
G1 X103.992 Y133.900 E17.44138
G1 X103.144 Y133.989 E17.54260
G1 X100.426 Y134.131 E17.86582
G1 X99.574 Y134.131 E17.96704
G1 X96.856 Y133.989 E18.29025
G1 X96.008 Y133.900 E18.39148
G1 X93.321 Y133.474 E18.71469
G1 X92.487 Y133.297 E18.81591
G1 X89.858 Y132.592 E19.13913
G1 X89.048 Y132.329 E19.24035
G1 X86.507 Y131.354 E19.56357
G1 X85.728 Y131.007 E19.66479
G1 X83.303 Y129.772 E19.98801
G1 X82.565 Y129.346 E20.08923
G1 X80.283 Y127.863 E20.41245
G1 X79.593 Y127.362 E20.51367
G1 X77.478 Y125.650 E20.83688
G1 X76.845 Y125.079 E20.93810
G1 X74.921 Y123.155 E21.26132
G1 X74.350 Y122.522 E21.36255
G1 X72.638 Y120.407 E21.68576
G1 X72.137 Y119.717 E21.78698
G1 X70.654 Y117.435 E22.11020
G1 X70.228 Y116.697 E22.21142
G1 X68.993 Y114.272 E22.53464
G1 X68.646 Y113.493 E22.63586
G1 X67.671 Y110.952 E22.95907
G1 X67.408 Y110.142 E23.06029
G1 X66.759 Y107.723 E23.35765
G1 X66.526 Y106.679 E23.48471
G1 X66.100 Y103.991 E23.80792
G1 X66.011 Y103.144 E23.90914
G1 X65.869 Y100.426 E24.23237
G1 X65.869 Y99.574 E24.33358
G1 X66.011 Y96.856 E24.65680
G1 X66.100 Y96.009 E24.75802
G1 X66.492 Y93.536 E25.05538
G1 X66.703 Y92.487 E25.18243
G1 X67.408 Y89.858 E25.50565
G1 X67.671 Y89.048 E25.60687
G1 X68.646 Y86.507 E25.93009
G1 X68.993 Y85.728 E26.03130
G1 X70.228 Y83.303 E26.35452
G1 X70.654 Y82.565 E26.45574
G1 X72.137 Y80.283 E26.77896
G1 X72.638 Y79.593 E26.88018
G1 X74.350 Y77.478 E27.20340
G1 X74.921 Y76.845 E27.30462
G1 X75.830 Y75.936 E27.45732
G1 X76.388 Y76.388 F6000.000
G1 X77.350 Y75.426 E27.61893 F1200.000
G1 X77.928 Y74.905 E27.71127
G1 X80.043 Y73.193 E28.03449
G1 X80.672 Y72.736 E28.12683
G1 X82.954 Y71.253 E28.45005
G1 X83.628 Y70.865 E28.54239
G1 X86.052 Y69.629 E28.86561
G1 X86.763 Y69.313 E28.95795
G1 X89.303 Y68.338 E29.28117
G1 X90.043 Y68.097 E29.37351
G1 X92.672 Y67.393 E29.69673
G1 X93.432 Y67.231 E29.78907
G1 X96.120 Y66.806 E30.11229
G1 X96.893 Y66.724 E30.20463
G1 X99.611 Y66.582 E30.52785
G1 X100.389 Y66.582 E30.62019
G1 X102.942 Y66.716 E30.92380
G1 X103.880 Y66.806 E31.03573 F1200.000
G1 X106.568 Y67.231 E31.35895
G1 X107.328 Y67.393 E31.45129
G1 X109.957 Y68.097 E31.77451
G1 X110.697 Y68.338 E31.86685
G1 X113.237 Y69.313 E32.19007
G1 X113.948 Y69.629 E32.28241
G1 X116.178 Y70.766 E32.57977
G1 X117.046 Y71.253 E32.69794
G1 X119.328 Y72.736 E33.02116
G1 X119.957 Y73.193 E33.11350
G1 X122.072 Y74.905 E33.43672
G1 X122.650 Y75.426 E33.52906
G1 X124.574 Y77.350 E33.85228
G1 X125.095 Y77.928 E33.94462
G1 X126.807 Y80.043 E34.26784
G1 X127.264 Y80.672 E34.36018
G1 X128.628 Y82.772 E34.65754
G1 X129.135 Y83.628 E34.77572
G1 X130.371 Y86.052 E35.09893
G1 X130.687 Y86.763 E35.19128
G1 X131.662 Y89.303 E35.51449
G1 X131.903 Y90.043 E35.60684
G1 X132.607 Y92.672 E35.93005
G1 X132.769 Y93.432 E36.02240
G1 X133.194 Y96.120 E36.34561
G1 X133.276 Y96.894 E36.43796
G1 X133.418 Y99.611 E36.76117
G1 X133.418 Y100.389 E36.85352
G1 X133.276 Y103.107 E37.17673
G1 X133.194 Y103.880 E37.26908
G1 X132.769 Y106.568 E37.59229
G1 X132.607 Y107.328 E37.68464
G1 X131.903 Y109.957 E38.00785
G1 X131.662 Y110.697 E38.10020
G1 X130.687 Y113.237 E38.42341
G1 X130.371 Y113.948 E38.51575
G1 X129.135 Y116.372 E38.83897
G1 X128.747 Y117.046 E38.93132
G1 X127.264 Y119.328 E39.25453
G1 X126.807 Y119.957 E39.34688
G1 X125.095 Y122.072 E39.67009
G1 X124.574 Y122.650 E39.76244
G1 X122.650 Y124.574 E40.08565
G1 X122.072 Y125.095 E40.17800
G1 X119.957 Y126.807 E40.50121
G1 X119.328 Y127.264 E40.59356
G1 X117.046 Y128.747 E40.91677
G1 X116.372 Y129.135 E41.00912
G1 X113.948 Y130.371 E41.33233
G1 X113.237 Y130.687 E41.42468
G1 X110.697 Y131.662 E41.74789
G1 X109.957 Y131.903 E41.84024
G1 X107.328 Y132.607 E42.16345
G1 X106.568 Y132.769 E42.25580
G1 X103.880 Y133.194 E42.57901
G1 X103.107 Y133.276 E42.67136
G1 X100.389 Y133.418 E42.99457
G1 X99.611 Y133.418 E43.08692
G1 X96.893 Y133.276 E43.41013
G1 X96.120 Y133.194 E43.50248
G1 X93.432 Y132.769 E43.82569
G1 X92.672 Y132.607 E43.91804
G1 X90.043 Y131.903 E44.24125
G1 X89.303 Y131.662 E44.33360
G1 X86.763 Y130.687 E44.65682
G1 X86.052 Y130.371 E44.74916
G1 X83.628 Y129.135 E45.07237
G1 X82.954 Y128.747 E45.16472
G1 X80.672 Y127.264 E45.48793
G1 X80.043 Y126.807 E45.58028
G1 X77.928 Y125.095 E45.90349
G1 X77.350 Y124.574 E45.99584
G1 X75.426 Y122.650 E46.31905
G1 X74.905 Y122.072 E46.41140
G1 X73.193 Y119.957 E46.73462
G1 X72.736 Y119.328 E46.82696
G1 X71.253 Y117.046 E47.15018
G1 X70.865 Y116.372 E47.24252
G1 X69.629 Y113.947 E47.56574
G1 X69.313 Y113.237 E47.65808
G1 X68.338 Y110.697 E47.98129
G1 X68.097 Y109.957 E48.07364
G1 X67.393 Y107.328 E48.39686
G1 X67.231 Y106.568 E48.48920
G1 X66.806 Y103.880 E48.81242
G1 X66.724 Y103.107 E48.90476
G1 X66.593 Y100.606 E49.20212
G1 X66.582 Y99.611 E49.32029
G1 X66.724 Y96.893 E49.64351
G1 X66.806 Y96.120 E49.73585
G1 X67.231 Y93.432 E50.05907
G1 X67.393 Y92.672 E50.15141
G1 X68.097 Y90.043 E50.47463
G1 X68.338 Y89.303 E50.56697
G1 X69.235 Y86.966 E50.86433
G1 X69.629 Y86.052 E50.98250
G1 X70.865 Y83.628 E51.30572
G1 X71.253 Y82.954 E51.39806
G1 X72.736 Y80.672 E51.72128
G1 X73.193 Y80.043 E51.81362
G1 X74.905 Y77.928 E52.13684
G1 X75.426 Y77.350 E52.22918
G1 X76.335 Y76.441 E52.38188
G1 X76.893 Y76.893 F6000.000
G1 X77.855 Y75.931 E52.54349 F1200.000
G1 X78.377 Y75.460 E52.62696
G1 X80.492 Y73.748 E52.95018
G1 X81.061 Y73.335 E53.03364
G1 X83.343 Y71.852 E53.35686
G1 X83.952 Y71.501 E53.44032
G1 X86.377 Y70.265 E53.76354
G1 X87.019 Y69.980 E53.84700
G1 X89.559 Y69.004 E54.17022
G1 X90.228 Y68.787 E54.25369
G1 X92.857 Y68.083 E54.57691
G1 X93.544 Y67.937 E54.66037
G1 X96.232 Y67.511 E54.98359
G1 X96.931 Y67.437 E55.06705
G1 X99.649 Y67.295 E55.39027
G1 X100.351 Y67.295 E55.47373
G1 X103.069 Y67.437 E55.79695 F1200.000
G1 X103.768 Y67.511 E55.88041
G1 X106.456 Y67.937 E56.20364
G1 X107.143 Y68.083 E56.28710
G1 X109.772 Y68.787 E56.61031
G1 X110.441 Y69.004 E56.69378
G1 X112.981 Y69.980 E57.01700
G1 X113.623 Y70.265 E57.10046
G1 X116.048 Y71.501 E57.42368
G1 X116.657 Y71.852 E57.50714
G1 X118.939 Y73.335 E57.83036
G1 X119.508 Y73.748 E57.91382
G1 X121.623 Y75.460 E58.23704
G1 X122.145 Y75.931 E58.32051
G1 X124.069 Y77.855 E58.64372
G1 X124.540 Y78.377 E58.72719
G1 X126.252 Y80.492 E59.05041
G1 X126.665 Y81.061 E59.13387
G1 X128.148 Y83.343 E59.45709
G1 X128.499 Y83.952 E59.54055
G1 X129.735 Y86.377 E59.86377
G1 X130.020 Y87.019 E59.94724
G1 X130.996 Y89.559 E60.27045
G1 X131.213 Y90.228 E60.35392
G1 X131.917 Y92.857 E60.67713
G1 X132.063 Y93.544 E60.76060
G1 X132.489 Y96.232 E61.08382
G1 X132.563 Y96.931 E61.16728
G1 X132.705 Y99.649 E61.49050
G1 X132.705 Y100.351 E61.57396
G1 X132.563 Y103.069 E61.89718
G1 X132.489 Y103.768 E61.98065
G1 X132.063 Y106.456 E62.30386
G1 X131.917 Y107.143 E62.38733
G1 X131.213 Y109.772 E62.71054
G1 X130.996 Y110.441 E62.79401
G1 X130.020 Y112.981 E63.11723
G1 X129.735 Y113.623 E63.20069
G1 X128.499 Y116.048 E63.52391
G1 X128.148 Y116.657 E63.60738
G1 X126.665 Y118.939 E63.93059
G1 X126.252 Y119.508 E64.01406
G1 X124.540 Y121.623 E64.33727
G1 X124.069 Y122.145 E64.42074
G1 X122.145 Y124.069 E64.74395
G1 X121.623 Y124.540 E64.82742
G1 X119.508 Y126.252 E65.15064
G1 X118.939 Y126.665 E65.23410
G1 X116.657 Y128.148 E65.55732
G1 X116.048 Y128.499 E65.64079
G1 X113.623 Y129.735 E65.96400
G1 X112.981 Y130.020 E66.04747
G1 X110.441 Y130.996 E66.37068
G1 X109.772 Y131.213 E66.45415
G1 X107.143 Y131.917 E66.77737
G1 X106.456 Y132.063 E66.86083
G1 X103.768 Y132.489 E67.18405
G1 X103.069 Y132.563 E67.26751
G1 X100.351 Y132.705 E67.59073
G1 X99.649 Y132.705 E67.67419
G1 X96.931 Y132.563 E67.99741
G1 X96.232 Y132.489 E68.08088
G1 X93.544 Y132.063 E68.40409
G1 X92.857 Y131.917 E68.48756
G1 X90.228 Y131.213 E68.81078
G1 X89.559 Y130.996 E68.89424
G1 X87.019 Y130.020 E69.21746
G1 X86.377 Y129.735 E69.30092
G1 X83.952 Y128.499 E69.62414
G1 X83.343 Y128.148 E69.70761
G1 X81.061 Y126.665 E70.03082
G1 X80.492 Y126.252 E70.11429
G1 X78.377 Y124.540 E70.43750
G1 X77.855 Y124.069 E70.52097
G1 X75.931 Y122.145 E70.84419
G1 X75.460 Y121.623 E70.92765
G1 X73.748 Y119.508 E71.25087
G1 X73.335 Y118.939 E71.33433
G1 X71.852 Y116.657 E71.65755
G1 X71.501 Y116.048 E71.74102
G1 X70.265 Y113.623 E72.06424
G1 X69.980 Y112.981 E72.14770
G1 X69.004 Y110.441 E72.47092
G1 X68.787 Y109.772 E72.55438
G1 X68.139 Y107.354 E72.85174
G1 X67.937 Y106.456 E72.96104
G1 X67.511 Y103.768 E73.28425
G1 X67.437 Y103.069 E73.36772
G1 X67.295 Y100.351 E73.69094
G1 X67.295 Y99.649 E73.77440
G1 X67.437 Y96.931 E74.09762
G1 X67.511 Y96.232 E74.18108
G1 X67.903 Y93.759 E74.47845
G1 X68.083 Y92.857 E74.58774
G1 X68.787 Y90.228 E74.91096
G1 X69.004 Y89.559 E74.99442
G1 X69.980 Y87.019 E75.31764
G1 X70.265 Y86.377 E75.40110
G1 X71.501 Y83.952 E75.72432
G1 X71.852 Y83.343 E75.80778
G1 X73.335 Y81.061 E76.13100
G1 X73.748 Y80.492 E76.21446
G1 X75.460 Y78.377 E76.53768
G1 X75.931 Y77.855 E76.62115
G1 X76.840 Y76.946 E76.77385
G1 E74.77385 F2400.00000
G92 E0
G1 X102.856 Y105.357 F6000.000
G1 E2.00000 F2400.00000
G1 X102.081 Y105.718 E2.10146 F1200.000
G1 X101.057 Y105.993 E2.22744
G1 X100.000 Y106.085 E2.35342
G1 X98.943 Y105.993 E2.47940
G1 X97.919 Y105.718 E2.60538
G1 X97.144 Y105.357 E2.70684
G1 X97.933 Y107.049 E2.92849
G1 X98.309 Y108.452 E3.10105
G1 X98.436 Y109.899 E3.27361
G1 X98.309 Y111.347 E3.44616
G1 X97.933 Y112.750 E3.61872
G1 X97.319 Y114.067 E3.79128
G1 X96.486 Y115.257 E3.96384
G1 X95.458 Y116.285 E4.13640
G1 X94.268 Y117.118 E4.30896
G1 X92.951 Y117.732 E4.48152
G1 X91.548 Y118.108 E4.65408
G1 X90.101 Y118.235 E4.82663
G1 X88.653 Y118.108 E4.99919
G1 X87.250 Y117.732 E5.17175
G1 X85.933 Y117.118 E5.34431
G1 X84.743 Y116.285 E5.51687
G1 X83.715 Y115.257 E5.68943
G1 X82.882 Y114.067 E5.86198
G1 X82.268 Y112.750 E6.03454
G1 X81.892 Y111.347 E6.20710
G1 X81.765 Y109.899 E6.37966
G1 X81.892 Y108.452 E6.55222
G1 X82.268 Y107.049 E6.72478
G1 X82.882 Y105.732 E6.89734
G1 X83.715 Y104.542 E7.06990
G1 X84.743 Y103.514 E7.24245
G1 X85.933 Y102.681 E7.41501
G1 X87.255 Y102.064 E7.58830
G1 X88.704 Y101.686 E7.76611
G1 X90.101 Y101.564 E7.93261
G1 X91.548 Y101.691 E8.10517
G1 X92.951 Y102.067 E8.27773
G1 X94.643 Y102.856 E8.49937
G1 X94.282 Y102.081 E8.60084
G1 X94.007 Y101.057 E8.72682
G1 X93.914 Y99.994 E8.85353
G1 X94.016 Y98.909 E8.98297
G1 X94.282 Y97.919 E9.10470
G1 X94.643 Y97.144 E9.20617
G1 X92.951 Y97.933 E9.42781
G1 X91.548 Y98.309 E9.60037
G1 X90.101 Y98.436 E9.77293
G1 X88.653 Y98.309 E9.94549
G1 X87.250 Y97.933 E10.11805
G1 X85.933 Y97.319 E10.29061
G1 X84.743 Y96.486 E10.46316
G1 X83.715 Y95.458 E10.63572
G1 X82.882 Y94.268 E10.80828
G1 X82.268 Y92.951 E10.98084
G1 X81.892 Y91.548 E11.15340
G1 X81.765 Y90.101 E11.32595
G1 X81.892 Y88.653 E11.49851
G1 X82.268 Y87.250 E11.67107
G1 X82.882 Y85.933 E11.84363
G1 X83.715 Y84.743 E12.01619
G1 X84.743 Y83.715 E12.18875
G1 X85.933 Y82.882 E12.36131
G1 X87.250 Y82.268 E12.53386
G1 X88.653 Y81.892 E12.70642
G1 X90.101 Y81.765 E12.87898
G1 X91.548 Y81.892 E13.05154
G1 X92.951 Y82.268 E13.22410
G1 X94.268 Y82.882 E13.39666
G1 X95.458 Y83.715 E13.56922
G1 X96.486 Y84.743 E13.74178
G1 X97.319 Y85.933 E13.91433
G1 X97.933 Y87.250 E14.08689
G1 X98.309 Y88.653 E14.25945
G1 X98.436 Y90.101 E14.43201
G1 X98.309 Y91.548 E14.60457
G1 X97.933 Y92.951 E14.77713
G1 X97.144 Y94.643 E14.99877
G1 X97.924 Y94.279 E15.10097
G1 X98.979 Y94.004 E15.23041
G1 X100.000 Y93.915 E15.35214
G1 X101.057 Y94.007 E15.47812
G1 X102.081 Y94.282 E15.60410
G1 X102.856 Y94.643 E15.70557
G1 X102.067 Y92.951 E15.92721
G1 X101.691 Y91.548 E16.09977
G1 X101.564 Y90.101 E16.27233
G1 X101.691 Y88.653 E16.44489
G1 X102.067 Y87.250 E16.61745
G1 X102.681 Y85.933 E16.79000
G1 X103.514 Y84.743 E16.96256
G1 X104.542 Y83.715 E17.13512
G1 X105.732 Y82.882 E17.30768
G1 X107.049 Y82.268 E17.48024
G1 X108.452 Y81.892 E17.65280
G1 X109.899 Y81.765 E17.82536
G1 X111.347 Y81.892 E17.99791
G1 X112.750 Y82.268 E18.17047
G1 X114.067 Y82.882 E18.34303
G1 X115.257 Y83.715 E18.51559
G1 X116.285 Y84.743 E18.68815
G1 X117.118 Y85.933 E18.86070
G1 X117.732 Y87.250 E19.03326
G1 X118.108 Y88.653 E19.20582
G1 X118.235 Y90.101 E19.37838
G1 X118.108 Y91.548 E19.55094
G1 X117.732 Y92.951 E19.72350
G1 X117.118 Y94.268 E19.89606
G1 X116.285 Y95.458 E20.06862
G1 X115.257 Y96.486 E20.24117
G1 X114.067 Y97.319 E20.41373
G1 X112.750 Y97.933 E20.58629
G1 X111.347 Y98.309 E20.75885
G1 X109.899 Y98.436 E20.93141
G1 X108.452 Y98.309 E21.10397
G1 X107.049 Y97.933 E21.27653
G1 X105.357 Y97.144 E21.49817
G1 X105.718 Y97.919 E21.59964
G1 X105.993 Y98.943 E21.72561
G1 X106.085 Y100.000 E21.85159
G1 X105.993 Y101.057 E21.97757
G1 X105.718 Y102.081 E22.10355
G1 X105.357 Y102.856 E22.20501
G1 X107.049 Y102.067 E22.42666
G1 X108.452 Y101.691 E22.59922
G1 X109.899 Y101.564 E22.77178
G1 X111.347 Y101.691 E22.94434
G1 X112.750 Y102.067 E23.11689
G1 X114.067 Y102.681 E23.28945
G1 X115.257 Y103.514 E23.46201
G1 X116.285 Y104.542 E23.63457
G1 X117.118 Y105.732 E23.80713
G1 X117.732 Y107.049 E23.97969
G1 X118.108 Y108.452 E24.15225
G1 X118.235 Y109.899 E24.32480
G1 X118.108 Y111.347 E24.49736
G1 X117.732 Y112.750 E24.66992
G1 X117.118 Y114.067 E24.84248
G1 X116.285 Y115.257 E25.01504
G1 X115.257 Y116.285 E25.18760
G1 X114.067 Y117.118 E25.36015
G1 X112.750 Y117.732 E25.53271
G1 X111.347 Y118.108 E25.70527
G1 X109.899 Y118.235 E25.87783
