; generated by Slic3r 1.2.9 on 2018-01-07 at 14:09:39

; external perimeters extrusion width = 0.50mm
; perimeters extrusion width = 0.64mm
; infill extrusion width = 0.64mm
; solid infill extrusion width = 0.64mm
; top infill extrusion width = 0.64mm
; support material extrusion width = 0.50mm

M107
M190 S65 ; set bed temperature
M104 S200 ; set temperature

G1 Z5 F5000 ; lift nozzle

M109 S200 ; wait for temperature to be reached
G21 ; set units to millimeters
G90 ; use absolute coordinates
M82 ; use absolute distances for extrusion
G92 E0
G1 Z0.400 F6000.000
G1 E-2.00000 F2400.00000
G92 E0
G1 X75.666 Y76.055 F6000.000
G1 E2.00000 F2400.00000
G1 X76.816 Y74.940 E2.19018 F1200.000
G1 X78.402 Y73.560 E2.43991
G1 X80.071 Y72.281 E2.68963
G1 X80.587 Y71.921 E2.76439
G1 X82.242 Y70.843 E2.99891
G1 X84.070 Y69.805 E3.24862
G1 X85.504 Y69.091 E3.43881
G1 X87.434 Y68.257 E3.68854
G1 X87.902 Y68.076 E3.74809
G1 X89.890 Y67.392 E3.99782
G1 X91.916 Y66.831 E4.24754
G1 X93.974 Y66.397 E4.49726
G1 X96.054 Y66.089 E4.74698
G1 X97.648 Y65.942 E4.93717
G1 X99.749 Y65.861 E5.18689
G1 X100.430 Y65.867 E5.26777
G1 X102.352 Y65.942 E5.49617 F1200.000
G1 X103.946 Y66.089 E5.68635
G1 X104.444 Y66.151 E5.74591
G1 X106.519 Y66.489 E5.99563
G1 X108.570 Y66.954 E6.24535
G1 X110.110 Y67.392 E6.43554
G1 X110.709 Y67.586 E6.51031
G1 X112.566 Y68.257 E6.74482
G1 X114.496 Y69.091 E6.99454
G1 X115.930 Y69.805 E7.18472
G1 X116.372 Y70.042 E7.24428
G1 X118.185 Y71.107 E7.49401
G1 X119.520 Y71.991 E7.68419
G1 X121.207 Y73.246 E7.93391
G1 X122.814 Y74.602 E8.18364
G1 X124.334 Y76.055 E8.43336
G1 X124.683 Y76.415 E8.49292
G1 X126.088 Y77.979 E8.74264
G1 X127.394 Y79.627 E8.99236
G1 X128.320 Y80.934 E9.18255
G1 X128.597 Y81.352 E9.24211
G1 X129.690 Y83.148 E9.49183
G1 X130.671 Y85.008 E9.74155
G1 X131.341 Y86.462 E9.93174
G1 X132.115 Y88.417 E10.18146
G1 X132.767 Y90.416 E10.43118
G1 X132.904 Y90.899 E10.49074
G1 X133.402 Y92.942 E10.74046
G1 X133.696 Y94.516 E10.93065
G1 X133.970 Y96.600 E11.18037
G1 X134.016 Y97.100 E11.23993
G1 X134.130 Y99.199 E11.48965
G1 X134.130 Y100.801 E11.67984
G1 X134.016 Y102.900 E11.92956
G1 X133.970 Y103.400 E11.98912
G1 X133.696 Y105.484 E12.23884
G1 X133.295 Y107.548 E12.48857
G1 X132.904 Y109.101 E12.67875
G1 X132.281 Y111.110 E12.92847
G1 X131.536 Y113.076 E13.17819
G1 X131.341 Y113.538 E13.23775
G1 X130.671 Y114.992 E13.42794
G1 X129.690 Y116.852 E13.67766
G1 X128.597 Y118.648 E13.92738
G1 X128.320 Y119.066 E13.98694
G1 X127.092 Y120.773 E14.23667
G1 X126.088 Y122.021 E14.42685
G1 X124.683 Y123.585 E14.67657
G1 X124.334 Y123.945 E14.73614
G1 X122.814 Y125.398 E14.98585
G1 X121.207 Y126.754 E15.23558
G1 X119.929 Y127.719 E15.42576
G1 X118.185 Y128.893 E15.67549
G1 X116.372 Y129.958 E15.92521
G1 X115.930 Y130.195 E15.98477
G1 X114.496 Y130.909 E16.17495
G1 X112.566 Y131.743 E16.42467
G1 X110.588 Y132.456 E16.67440
G1 X108.570 Y133.046 E16.92412
G1 X108.084 Y133.169 E16.98368
G1 X106.026 Y133.603 E17.23340
G1 X104.444 Y133.849 E17.42359
G1 X102.352 Y134.058 E17.67331
G1 X101.851 Y134.089 E17.73287
G1 X100.251 Y134.139 E17.92305
G1 X98.149 Y134.089 E18.17277
G1 X96.054 Y133.911 E18.42250
G1 X93.974 Y133.603 E18.67222
G1 X93.481 Y133.511 E18.73178
G1 X91.916 Y133.169 E18.92196
G1 X89.890 Y132.608 E19.17169
G1 X87.902 Y131.924 E19.42141
G1 X87.434 Y131.743 E19.48097
G1 X85.959 Y131.119 E19.67115
G1 X84.070 Y130.195 E19.92087
G1 X82.242 Y129.157 E20.17060
G1 X80.480 Y128.009 E20.42032
G1 X80.071 Y127.719 E20.47988
G1 X78.793 Y126.754 E20.67006
G1 X77.186 Y125.398 E20.91979
G1 X76.816 Y125.060 E20.97935
G1 X75.317 Y123.585 E21.22907
G1 X74.238 Y122.402 E21.41925
G1 X72.908 Y120.773 E21.66897
G1 X71.680 Y119.066 E21.91870
G1 X70.560 Y117.286 E22.16842
G1 X70.310 Y116.852 E22.22798
G1 X69.552 Y115.441 E22.41817
G1 X69.308 Y114.947 E22.48368
G1 X68.464 Y113.076 E22.72745
G1 X67.885 Y111.583 E22.91763
G1 X67.719 Y111.110 E22.97719
G1 X67.096 Y109.101 E23.22691
G1 X66.705 Y107.548 E23.41710
G1 X66.304 Y105.484 E23.66682
G1 X66.211 Y104.862 E23.74158
G1 X65.984 Y102.900 E23.97609
G1 X65.870 Y100.801 E24.22582
G1 X65.885 Y98.698 E24.47553
G1 X65.984 Y97.100 E24.66573
G1 X66.227 Y95.011 E24.91545
G1 X66.304 Y94.516 E24.97501
G1 X66.598 Y92.942 E25.16519
G1 X67.096 Y90.899 E25.41491
G1 X67.272 Y90.294 E25.48968
G1 X67.885 Y88.417 E25.72418
G1 X68.659 Y86.462 E25.97391
G1 X69.329 Y85.008 E26.16410
G1 X70.310 Y83.148 E26.41382
G1 X70.628 Y82.605 E26.48859
G1 X71.680 Y80.934 E26.72310
G1 X72.908 Y79.227 E26.97282
G1 X73.912 Y77.979 E27.16300
G1 X74.238 Y77.598 E27.22256
G1 X75.614 Y76.109 E27.46338
G1 X76.163 Y76.568 F6000.000
G1 X77.651 Y75.145 E27.70788 F1200.000
G1 X79.223 Y73.816 E27.95237
G1 X80.875 Y72.587 E28.19687
G1 X82.210 Y71.702 E28.38707
G1 X82.599 Y71.461 E28.44140
G1 X84.388 Y70.444 E28.68590
G1 X85.822 Y69.730 E28.87609
G1 X87.712 Y68.915 E29.12059
G1 X88.139 Y68.750 E29.17492
G1 X90.085 Y68.079 E29.41942
G1 X92.069 Y67.529 E29.66392
G1 X94.083 Y67.102 E29.90842
G1 X96.119 Y66.800 E30.15292
G1 X97.714 Y66.653 E30.34311
G1 X99.771 Y66.575 E30.58761
G1 X100.408 Y66.581 E30.66326
G1 X102.286 Y66.653 E30.88644 F1200.000
G1 X103.880 Y66.800 E31.07662
G1 X104.335 Y66.857 E31.13096
G1 X106.367 Y67.186 E31.37546
G1 X108.375 Y67.641 E31.61995
G1 X109.915 Y68.079 E31.81014
G1 X111.861 Y68.750 E32.05464
G1 X112.288 Y68.915 E32.10898
G1 X114.178 Y69.730 E32.35348
G1 X116.015 Y70.661 E32.59797
G1 X117.401 Y71.461 E32.78816
G1 X117.790 Y71.702 E32.84250
G1 X119.499 Y72.851 E33.08700
G1 X121.133 Y74.103 E33.33150
G1 X122.349 Y75.145 E33.52168
G1 X123.837 Y76.568 E33.76618
G1 X124.155 Y76.896 E33.82052
G1 X125.532 Y78.427 E34.06502
G1 X126.811 Y80.040 E34.30952
G1 X127.737 Y81.347 E34.49970
G1 X127.989 Y81.728 E34.55404
G1 X129.061 Y83.486 E34.79854
G1 X129.819 Y84.897 E34.98872
G1 X130.692 Y86.761 E35.23322
G1 X131.449 Y88.675 E35.47773
G1 X132.086 Y90.633 E35.72222
G1 X132.211 Y91.073 E35.77656
G1 X132.700 Y93.073 E36.02106
G1 X132.994 Y94.647 E36.21125
G1 X133.261 Y96.688 E36.45574
G1 X133.303 Y97.144 E36.51008
G1 X133.416 Y99.199 E36.75458
G1 X133.416 Y100.801 E36.94476
G1 X133.303 Y102.856 E37.18926
G1 X133.261 Y103.312 E37.24360
G1 X132.994 Y105.353 E37.48810
G1 X132.602 Y107.374 E37.73260
G1 X132.211 Y108.927 E37.92279
G1 X131.601 Y110.893 E38.16729
G1 X130.870 Y112.818 E38.41178
G1 X130.692 Y113.239 E38.46612
G1 X130.023 Y114.694 E38.65630
G1 X129.061 Y116.514 E38.90081
G1 X127.989 Y118.272 E39.14530
G1 X126.811 Y119.960 E39.38981
G1 X126.536 Y120.325 E39.44414
G1 X125.532 Y121.573 E39.63433
G1 X124.155 Y123.104 E39.87882
G1 X123.837 Y123.432 E39.93316
G1 X122.349 Y124.855 E40.17766
G1 X120.777 Y126.184 E40.42216
G1 X119.499 Y127.149 E40.61235
G1 X117.790 Y128.298 E40.85685
G1 X116.015 Y129.339 E41.10134
G1 X115.612 Y129.556 E41.15569
G1 X114.178 Y130.270 E41.34587
G1 X112.288 Y131.085 E41.59037
G1 X110.351 Y131.783 E41.83487
G1 X108.375 Y132.359 E42.07936
G1 X107.931 Y132.471 E42.13370
G1 X106.367 Y132.814 E42.32389
G1 X104.335 Y133.143 E42.56839
G1 X102.286 Y133.347 E42.81288
G1 X101.829 Y133.375 E42.86722
G1 X100.229 Y133.425 E43.05741
G1 X98.171 Y133.375 E43.30191
G1 X96.119 Y133.200 E43.54641
G1 X94.083 Y132.898 E43.79091
G1 X93.633 Y132.814 E43.84524
G1 X92.069 Y132.471 E44.03543
G1 X90.085 Y131.921 E44.27993
G1 X88.139 Y131.250 E44.52443
G1 X87.712 Y131.085 E44.57876
G1 X86.238 Y130.461 E44.76895
G1 X84.388 Y129.556 E45.01345
G1 X82.599 Y128.539 E45.25795
G1 X80.875 Y127.413 E45.50245
G1 X80.501 Y127.149 E45.55678
G1 X78.867 Y125.897 E45.80128
G1 X77.651 Y124.855 E45.99147
G1 X76.163 Y123.432 E46.23597
G1 X75.845 Y123.104 E46.29031
G1 X74.468 Y121.573 E46.53480
G1 X73.464 Y120.325 E46.72499
G1 X72.263 Y118.653 E46.96949
G1 X71.168 Y116.911 E47.21399
G1 X70.939 Y116.514 E47.26833
G1 X70.181 Y115.103 E47.45851
G1 X69.956 Y114.648 E47.51880
G1 X69.130 Y112.818 E47.75734
G1 X68.551 Y111.325 E47.94753
G1 X68.399 Y110.893 E48.00186
G1 X67.789 Y108.927 E48.24636
G1 X67.300 Y106.927 E48.49086
G1 X66.936 Y104.901 E48.73536
G1 X66.739 Y103.312 E48.92555
G1 X66.689 Y102.728 E48.99509
G1 X66.584 Y100.801 E49.22438
G1 X66.598 Y98.742 E49.46887
G1 X66.697 Y97.144 E49.65906
G1 X66.936 Y95.099 E49.90356
G1 X67.006 Y94.647 E49.95790
G1 X67.398 Y92.626 E50.20240
G1 X67.789 Y91.073 E50.39258
G1 X67.953 Y90.511 E50.46213
G1 X68.551 Y88.675 E50.69141
G1 X69.308 Y86.761 E50.93591
G1 X69.977 Y85.306 E51.12610
G1 X70.939 Y83.486 E51.37060
G1 X71.235 Y82.981 E51.44014
G1 X72.263 Y81.347 E51.66943
G1 X73.464 Y79.675 E51.91393
G1 X74.468 Y78.427 E52.10411
G1 X74.766 Y78.080 E52.15845
G1 X76.111 Y76.621 E52.39405
G1 X76.660 Y77.080 F6000.000
G1 X78.116 Y75.687 E52.63332 F1200.000
G1 X79.654 Y74.386 E52.87259
G1 X81.269 Y73.182 E53.11187
G1 X82.604 Y72.297 E53.30206
G1 X82.956 Y72.080 E53.35118
G1 X84.707 Y71.083 E53.59045
G1 X86.140 Y70.370 E53.78064
G1 X87.991 Y69.573 E54.01991
G1 X88.376 Y69.423 E54.06903
G1 X90.281 Y68.766 E54.30830
G1 X92.222 Y68.227 E54.54758
G1 X94.193 Y67.808 E54.78686
G1 X95.775 Y67.562 E54.97704
G1 X97.780 Y67.364 E55.21632
G1 X99.793 Y67.289 E55.45560
G1 X100.386 Y67.295 E55.52603
G1 X102.220 Y67.364 E55.74398 F1200.000
G1 X103.815 Y67.512 E55.93417
G1 X105.807 Y67.808 E56.17344
G1 X106.214 Y67.884 E56.22256
G1 X108.179 Y68.327 E56.46183
G1 X109.719 Y68.766 E56.65202
G1 X111.624 Y69.423 E56.89130
G1 X112.009 Y69.573 E56.94041
G1 X113.860 Y70.370 E57.17969
G1 X115.293 Y71.083 E57.36987
G1 X115.768 Y71.343 E57.43419
G1 X117.396 Y72.297 E57.65826
G1 X118.731 Y73.182 E57.84844
G1 X120.346 Y74.386 E58.08772
G1 X121.884 Y75.687 E58.32700
G1 X123.340 Y77.080 E58.56627
G1 X123.628 Y77.377 E58.61539
G1 X124.975 Y78.875 E58.85466
G1 X125.979 Y80.122 E59.04485
G1 X127.154 Y81.759 E59.28412
G1 X127.382 Y82.104 E59.33324
G1 X128.432 Y83.824 E59.57251
G1 X129.189 Y85.234 E59.76270
G1 X130.043 Y87.059 E60.00198
G1 X130.204 Y87.440 E60.05109
G1 X130.920 Y89.323 E60.29036
G1 X131.406 Y90.849 E60.48055
G1 X131.909 Y92.800 E60.71983
G1 X132.292 Y94.778 E60.95911
G1 X132.356 Y95.187 E61.00822
G1 X132.591 Y97.188 E61.24749
G1 X132.702 Y99.199 E61.48677
G1 X132.702 Y100.801 E61.67696
G1 X132.591 Y102.812 E61.91623
G1 X132.552 Y103.224 E61.96535
G1 X132.292 Y105.222 E62.20462
G1 X131.909 Y107.200 E62.44390
G1 X131.519 Y108.753 E62.63409
G1 X130.920 Y110.677 E62.87337
G1 X130.204 Y112.560 E63.11264
G1 X130.043 Y112.941 E63.16175
G1 X129.374 Y114.395 E63.35194
G1 X128.432 Y116.176 E63.59122
G1 X127.382 Y117.896 E63.83049
G1 X127.154 Y118.241 E63.87961
G1 X125.979 Y119.878 E64.11889
G1 X124.975 Y121.125 E64.30907
G1 X123.628 Y122.623 E64.54834
G1 X123.340 Y122.920 E64.59746
G1 X121.884 Y124.313 E64.83673
G1 X120.346 Y125.614 E65.07601
G1 X119.068 Y126.579 E65.26620
G1 X117.396 Y127.703 E65.50548
G1 X115.658 Y128.721 E65.74475
G1 X115.293 Y128.917 E65.79387
G1 X113.860 Y129.630 E65.98405
G1 X112.009 Y130.427 E66.22333
G1 X110.113 Y131.109 E66.46261
G1 X108.179 Y131.673 E66.70188
G1 X107.778 Y131.773 E66.75099
G1 X106.214 Y132.116 E66.94118
G1 X104.225 Y132.438 E67.18046
G1 X102.220 Y132.636 E67.41973
G1 X101.807 Y132.662 E67.46885
G1 X100.207 Y132.711 E67.65903
G1 X98.193 Y132.662 E67.89831
G1 X96.185 Y132.488 E68.13759
G1 X94.193 Y132.192 E68.37686
G1 X93.786 Y132.116 E68.42598
G1 X92.222 Y131.773 E68.61616
G1 X90.281 Y131.234 E68.85544
G1 X88.376 Y130.577 E69.09471
G1 X87.991 Y130.427 E69.14383
G1 X86.516 Y129.803 E69.33401
G1 X84.707 Y128.917 E69.57329
G1 X82.956 Y127.920 E69.81257
G1 X81.269 Y126.818 E70.05184
G1 X80.932 Y126.579 E70.10096
G1 X79.654 Y125.614 E70.29114
G1 X78.116 Y124.313 E70.53042
G1 X76.660 Y122.920 E70.76970
G1 X76.372 Y122.623 E70.81881
G1 X75.294 Y121.439 E71.00899
G1 X74.021 Y119.878 E71.24827
G1 X72.846 Y118.241 E71.48755
G1 X71.775 Y116.535 E71.72682
G1 X71.568 Y116.176 E71.77594
G1 X70.605 Y114.350 E72.02116
G1 X69.796 Y112.560 E72.25449
G1 X69.217 Y111.067 E72.44467
G1 X69.080 Y110.677 E72.49378
G1 X68.481 Y108.753 E72.73305
G1 X68.091 Y107.200 E72.92324
G1 X67.708 Y105.222 E73.16252
G1 X67.629 Y104.686 E73.22684
G1 X67.409 Y102.812 E73.45090
G1 X67.298 Y100.801 E73.69018
G1 X67.311 Y98.786 E73.92945
G1 X67.409 Y97.188 E74.11965
G1 X67.448 Y96.776 E74.16876
G1 X67.708 Y94.778 E74.40803
G1 X68.091 Y92.800 E74.64731
G1 X68.481 Y91.247 E74.83750
G1 X68.633 Y90.727 E74.90181
G1 X69.217 Y88.933 E75.12587
G1 X69.957 Y87.059 E75.36516
G1 X70.626 Y85.605 E75.55534
G1 X71.568 Y83.824 E75.79462
G1 X71.842 Y83.357 E75.85894
G1 X72.846 Y81.759 E76.08300
G1 X73.771 Y80.452 E76.27319
G1 X75.025 Y78.875 E76.51247
G1 X76.608 Y77.134 E76.79193
G1 E74.79193 F2400.00000
G92 E0
G1 X105.795 Y102.660 F6000.000
G1 E2.00000 F2400.00000
G1 X105.958 Y102.559 E2.02279 F1200.000
G1 X106.890 Y102.130 E2.14462
G1 X107.875 Y101.817 E2.26745
G1 X108.948 Y101.626 E2.39683
G1 X109.899 Y101.568 E2.51007
G1 X110.923 Y101.631 E2.63190
G1 X111.932 Y101.819 E2.75373
G1 X112.909 Y102.130 E2.87557
G1 X113.841 Y102.559 E2.99740
G1 X114.713 Y103.099 E3.11923
G1 X115.519 Y103.747 E3.24206
G1 X116.270 Y104.536 E3.37144
G1 X116.845 Y105.297 E3.48468
G1 X117.358 Y106.186 E3.60651
G1 X117.758 Y107.130 E3.72834
G1 X118.038 Y108.117 E3.85017
G1 X118.196 Y109.131 E3.97201
G1 X118.227 Y110.156 E4.09384
G1 X118.133 Y111.178 E4.21567
G1 X117.913 Y112.180 E4.33750
G1 X117.572 Y113.147 E4.45933
G1 X117.115 Y114.065 E4.58117
G1 X116.548 Y114.921 E4.70300
G1 X115.881 Y115.700 E4.82483
G1 X115.123 Y116.391 E4.94666
G1 X114.286 Y116.983 E5.06850
G1 X113.382 Y117.469 E5.19033
G1 X112.425 Y117.839 E5.31216
G1 X111.430 Y118.089 E5.43399
G1 X110.412 Y118.215 E5.55583
G1 X109.387 Y118.215 E5.67766
G1 X108.369 Y118.089 E5.79949
G1 X107.374 Y117.839 E5.92132
G1 X106.417 Y117.469 E6.04315
G1 X105.506 Y116.979 E6.16598
G1 X104.623 Y116.342 E6.29536
G1 X103.918 Y115.700 E6.40860
G1 X103.251 Y114.921 E6.53043
G1 X102.684 Y114.065 E6.65226
G1 X102.227 Y113.147 E6.77410
G1 X101.886 Y112.180 E6.89593
G1 X101.666 Y111.178 E7.01776
G1 X101.572 Y110.156 E7.13959
G1 X101.603 Y109.131 E7.26143
G1 X101.760 Y108.119 E7.38307
G1 X102.036 Y107.142 E7.50357
G1 X102.441 Y106.186 E7.62693
G1 X102.679 Y105.774 E7.68342
G1 X102.481 Y105.543 E7.71953
G1 X101.793 Y105.813 E7.80725
G1 X100.907 Y106.015 E7.91524
G1 X100.000 Y106.083 E8.02323
G1 X99.093 Y106.015 E8.13121
G1 X98.207 Y105.813 E8.23920
G1 X97.519 Y105.543 E8.32692
G1 X97.321 Y105.774 E8.36303
G1 X97.563 Y106.193 E8.42051
G1 X97.978 Y107.200 E8.54989
G1 X98.239 Y108.117 E8.66313
G1 X98.397 Y109.131 E8.78496
G1 X98.428 Y110.156 E8.90679
G1 X98.334 Y111.178 E9.02863
G1 X98.114 Y112.180 E9.15046
G1 X97.773 Y113.147 E9.27229
G1 X97.316 Y114.065 E9.39412
G1 X96.749 Y114.921 E9.51596
G1 X96.082 Y115.700 E9.63779
G1 X95.324 Y116.391 E9.75962
G1 X94.487 Y116.983 E9.88145
G1 X93.583 Y117.469 E10.00328
G1 X92.626 Y117.839 E10.12512
G1 X91.631 Y118.089 E10.24695
G1 X90.613 Y118.215 E10.36878
G1 X89.588 Y118.215 E10.49061
G1 X88.570 Y118.089 E10.61245
G1 X87.575 Y117.839 E10.73428
G1 X86.618 Y117.469 E10.85611
G1 X85.707 Y116.979 E10.97894
G1 X84.824 Y116.342 E11.10832
G1 X84.119 Y115.700 E11.22156
G1 X83.452 Y114.921 E11.34339
G1 X82.885 Y114.065 E11.46522
G1 X82.428 Y113.147 E11.58705
G1 X82.087 Y112.180 E11.70888
G1 X81.867 Y111.178 E11.83072
G1 X81.772 Y110.148 E11.95354
G1 X81.815 Y109.059 E12.08293
G1 X81.962 Y108.117 E12.19616
G1 X82.245 Y107.122 E12.31899
G1 X82.678 Y106.123 E12.44837
G1 X83.155 Y105.297 E12.56161
G1 X83.778 Y104.472 E12.68443
G1 X84.544 Y103.697 E12.81382
G1 X85.287 Y103.099 E12.92705
G1 X86.159 Y102.559 E13.04888
G1 X87.091 Y102.130 E13.17072
G1 X88.076 Y101.817 E13.29354
G1 X89.149 Y101.626 E13.42292
G1 X90.101 Y101.568 E13.53616
G1 X91.124 Y101.631 E13.65799
G1 X92.133 Y101.819 E13.77983
G1 X93.110 Y102.130 E13.90166
G1 X94.042 Y102.559 E14.02349
G1 X94.205 Y102.660 E14.04628
G1 X94.444 Y102.445 E14.08445
G1 X94.337 Y102.223 E14.11380
G1 X94.078 Y101.383 E14.21814
G1 X93.934 Y100.460 E14.32911
G1 X93.934 Y99.545 E14.43772
G1 X94.069 Y98.646 E14.54571
G1 X94.337 Y97.777 E14.65369
G1 X94.444 Y97.555 E14.68304
G1 X94.205 Y97.340 E14.72121
G1 X94.042 Y97.441 E14.74400
G1 X93.110 Y97.870 E14.86583
