%
(contour-1-flat.nc)
(T2  D=3 CR=0 TAPER=118deg - ZMIN=-9.75 - drill)
G90 G94
G17
G21
G28 G91 Z0
G90

(Drill1)
M9
T2 M6
S1000 M3
G54
M9
G0 X9.5 Y40
Z15
Z5
Z4.75
G1 Z-9.75 F50
G0 Z5
Y36
Z4.75
G1 Z-9.75 F50
G0 Z5
Y9
Z4.75
G1 Z-9.75 F50
G0 Z5
Y5
Z4.75
G1 Z-9.75 F50
G0 Z5
X40.5
Z4.75
G1 Z-9.75 F50
G0 Z5
Y9
Z4.75
G1 Z-9.75 F50
G0 Z5
Y36
Z4.75
G1 Z-9.75 F50
G0 Z5
Y40
Z4.75
G1 Z-9.75 F50
G0 Z5
Z15
M9
G28 G91 Z0
G28 X0 Y0
M30
%
