%
(contour-1-flat.nc)
(T1  D=3.14 CR=0 - ZMIN=-9.25 - flat end mill)
G90 G94
G17
G21
G28 G91 Z0
G90

(2D Pocket1)
M9
T1 M6
S8000 M3
G54
M8
G0 X18.158 Y24.271
Z15
Z5
G1 Z2.5 F100
Z-1.186
X18.153 Y24.265 Z-1.256
X18.139 Y24.246 Z-1.322
X18.117 Y24.216 Z-1.382
X18.088 Y24.175 Z-1.431
X18.053 Y24.127 Z-1.469
X18.014 Y24.074 Z-1.492
X17.973 Y24.017 Z-1.5
G3 X17.503 Y22.571 I1.991 J-1.446
G1 Y20.5
G3 X32.497 I7.497
G1 Y24.641
G3 X17.503 I-7.497
G1 Y22.571
G2 X16.044 Y20.455 I-2.263
G3 X14.829 Y18.19 I0.695 J-1.831
X35.43 Y20.5 I10.171 J2.31
G1 Y24.641
G3 X14.57 I-10.43
G1 Y20.5
G3 X14.829 Y18.19 I10.43
X15.167 Y18.095 I0.195 J0.044
G1 X18.071 Y21.067
G2 X18.374 Y20.807 I0.143 J-0.14
G1 X18.333 Y20.751 Z-1.508
X18.293 Y20.698 Z-1.531
X18.257 Y20.65 Z-1.569
X18.228 Y20.61 Z-1.618
X18.205 Y20.58 Z-1.678
X18.192 Y20.562 Z-1.744
X18.187 Y20.556 Z-1.814
Z-2.686
X18.182 Y20.549 Z-2.756
X18.168 Y20.531 Z-2.822
X18.146 Y20.501 Z-2.882
X18.116 Y20.461 Z-2.931
X18.081 Y20.413 Z-2.969
X18.041 Y20.36 Z-2.992
X17.999 Y20.304 Z-3
G3 X17.689 Y18.84 I1.433 J-1.068
X32.497 Y20.5 I7.311 J1.66
G1 Y24.641
G3 X17.503 I-7.497
G1 Y20.5
G3 X17.689 Y18.84 I7.497
G2 X16.934 Y16.588 I-2.226 J-0.505
G3 X16.666 Y14.229 I1.113 J-1.321
X35.43 Y20.5 I8.334 J6.271
G1 Y24.641
G3 X14.57 I-10.43
G1 Y20.5
G3 X16.666 Y14.229 I10.43
X17.014 Y14.28 I0.16 J0.12
G1 X18.444 Y18.192
G2 X18.827 Y18.08 I0.188 J-0.069
G1 X18.812 Y18.012 Z-3.008
X18.797 Y17.947 Z-3.031
X18.784 Y17.889 Z-3.069
X18.774 Y17.84 Z-3.118
X18.765 Y17.804 Z-3.178
X18.76 Y17.781 Z-3.244
X18.759 Y17.773 Z-3.314
Z-3.936
X18.757 Y17.766 Z-4.006
X18.752 Y17.743 Z-4.072
X18.744 Y17.706 Z-4.132
X18.733 Y17.658 Z-4.181
X18.72 Y17.6 Z-4.219
X18.706 Y17.535 Z-4.242
X18.69 Y17.467 Z-4.25
G3 X19.01 Y15.992 I1.759 J-0.391
X32.497 Y20.5 I5.99 J4.508
G1 Y24.641
G3 X17.503 I-7.497
G1 Y20.5
G3 X19.01 Y15.992 I7.497
G2 X19.242 Y13.629 I-1.824 J-1.373
G3 X19.964 Y11.366 I1.556 J-0.75
X35.43 Y20.5 I5.036 J9.134
G1 Y24.641
G3 X14.57 I-10.43
G1 Y20.5
G3 X19.964 Y11.366 I10.43
X20.078 Y11.33 Z-4.226 I0.152 J0.275
X20.179 Y11.334 Z-4.158 I0.038 J0.312
X20.244 Y11.355 Z-4.056 I-0.063 J0.308
X20.265 Y11.365 Z-3.936 I-0.128 J0.287
G0 Z15

(2D Pocket2)
M8
X24.995 Y19.886
Z15
Z5
G1 Z2.795 F100
X25 Z2.74
G3 X25.037 Y19.887 Z2.638 J0.614
X25.107 Y19.895 Z2.554 I-0.037 J0.613
X25.198 Y19.919 Z2.5 I-0.107 J0.605
X25.614 Y20.5 Z2.222 I-0.198 J0.581
G1 Y24.5 Z0.767
G3 X24.386 Z0.064 I-0.614
G1 Y20.5 Z-1.391
G3 X24.457 Y20.213 Z-1.5 I0.614
X25.614 Y20.5 I0.543 J0.287
G1 Y24.5
G3 X24.386 I-0.614
G1 Y20.5
G3 X24.457 Y20.213 I0.614
G2 X24.486 Y18.457 I-1.718 J-0.907
G3 X25.528 Y17.043 I0.892 J-0.434
X28.497 Y20.5 I-0.528 J3.457
G1 Y24.5
G3 X21.503 I-3.497
G1 Y20.5
G3 X25.528 Y17.043 I3.497
G2 X27.576 Y16.249 I0.333 J-2.178
G3 X29.77 Y16.189 I1.123 J0.907
X31.43 Y20.5 I-4.77 J4.311
G1 Y24.5
G3 X18.57 I-6.43
G1 Y20.5
G3 X29.77 Y16.189 I6.43
X29.791 Y16.429 I-0.148 J0.134
G1 X24.755 Y24.429
G3 X24.386 Y24.323 I-0.169 J-0.107
G1 Y20.5 Z-2.891
G3 X24.457 Y20.213 Z-3 I0.614
X25.614 Y20.5 I0.543 J0.287
G1 Y24.5
G3 X24.386 I-0.614
G1 Y20.5
G3 X24.457 Y20.213 I0.614
G2 X24.486 Y18.457 I-1.718 J-0.907
G3 X25.528 Y17.043 I0.892 J-0.434
X28.497 Y20.5 I-0.528 J3.457
G1 Y24.5
G3 X21.503 I-3.497
G1 Y20.5
G3 X25.528 Y17.043 I3.497
G2 X27.576 Y16.249 I0.333 J-2.178
G3 X29.77 Y16.189 I1.123 J0.907
X31.43 Y20.5 I-4.77 J4.311
G1 Y24.5
G3 X18.57 I-6.43
G1 Y20.5
G3 X29.77 Y16.189 I6.43
X29.791 Y16.429 I-0.148 J0.134
G1 X24.755 Y24.429
G3 X24.386 Y24.323 I-0.169 J-0.107
G1 Y20.5 Z-4.391
G3 X24.457 Y20.213 Z-4.5 I0.614
X25.614 Y20.5 I0.543 J0.287
G1 Y24.5
G3 X24.386 I-0.614
G1 Y20.5
G3 X24.457 Y20.213 I0.614
G2 X24.486 Y18.457 I-1.718 J-0.907
G3 X25.528 Y17.043 I0.892 J-0.434
X28.497 Y20.5 I-0.528 J3.457
G1 Y24.5
G3 X21.503 I-3.497
G1 Y20.5
G3 X25.528 Y17.043 I3.497
G2 X27.576 Y16.249 I0.333 J-2.178
G3 X29.77 Y16.189 I1.123 J0.907
X31.43 Y20.5 I-4.77 J4.311
G1 Y24.5
G3 X18.57 I-6.43
G1 Y20.5
G3 X29.77 Y16.189 I6.43
X29.791 Y16.429 I-0.148 J0.134
G1 X24.755 Y24.429
G3 X24.386 Y24.323 I-0.169 J-0.107
G1 Y20.5 Z-5.891
G3 X24.457 Y20.213 Z-6 I0.614
X25.614 Y20.5 I0.543 J0.287
G1 Y24.5
G3 X24.386 I-0.614
G1 Y20.5
G3 X24.457 Y20.213 I0.614
G2 X24.486 Y18.457 I-1.718 J-0.907
G3 X25.528 Y17.043 I0.892 J-0.434
X28.497 Y20.5 I-0.528 J3.457
G1 Y24.5
G3 X21.503 I-3.497
G1 Y20.5
G3 X25.528 Y17.043 I3.497
G2 X27.576 Y16.249 I0.333 J-2.178
G3 X29.77 Y16.189 I1.123 J0.907
X31.43 Y20.5 I-4.77 J4.311
G1 Y24.5
G3 X18.57 I-6.43
G1 Y20.5
G3 X29.77 Y16.189 I6.43
X29.791 Y16.429 I-0.148 J0.134
G1 X24.755 Y24.429
G3 X24.386 Y24.323 I-0.169 J-0.107
G1 Y20.5 Z-7.391
G3 X24.457 Y20.213 Z-7.5 I0.614
X25.614 Y20.5 I0.543 J0.287
G1 Y24.5
G3 X24.386 I-0.614
G1 Y20.5
G3 X24.457 Y20.213 I0.614
G2 X24.486 Y18.457 I-1.718 J-0.907
G3 X25.528 Y17.043 I0.892 J-0.434
X28.497 Y20.5 I-0.528 J3.457
G1 Y24.5
G3 X21.503 I-3.497
G1 Y20.5
G3 X25.528 Y17.043 I3.497
G2 X27.576 Y16.249 I0.333 J-2.178
G3 X29.77 Y16.189 I1.123 J0.907
X31.43 Y20.5 I-4.77 J4.311
G1 Y24.5
G3 X18.57 I-6.43
G1 Y20.5
G3 X29.77 Y16.189 I6.43
X29.778 Y16.448 I-0.148 J0.134
G1 X24.742 Y22.731
G3 X24.386 Y22.606 I-0.156 J-0.125
G1 Y20.5 Z-8.266
G3 X24.457 Y20.213 Z-8.375 I0.614
X25.614 Y20.5 I0.543 J0.287
G1 Y24.5
G3 X24.386 I-0.614
G1 Y20.5
G3 X24.457 Y20.213 I0.614
G2 X24.486 Y18.457 I-1.718 J-0.907
G3 X25.528 Y17.043 I0.892 J-0.434
X28.497 Y20.5 I-0.528 J3.457
G1 Y24.5
G3 X21.503 I-3.497
G1 Y20.5
G3 X25.528 Y17.043 I3.497
G2 X27.576 Y16.249 I0.333 J-2.178
G3 X29.77 Y16.189 I1.123 J0.907
X31.43 Y20.5 I-4.77 J4.311
G1 Y24.5
G3 X18.57 I-6.43
G1 Y20.5
G3 X29.77 Y16.189 I6.43
X29.778 Y16.448 I-0.148 J0.134
G1 X24.742 Y22.731
G3 X24.386 Y22.606 I-0.156 J-0.125
G1 Y20.5 Z-9.141
G3 X24.457 Y20.213 Z-9.25 I0.614
X25.614 Y20.5 I0.543 J0.287
G1 Y24.5
G3 X24.386 I-0.614
G1 Y20.5
G3 X24.457 Y20.213 I0.614
G2 X24.486 Y18.457 I-1.718 J-0.907
G3 X25.528 Y17.043 I0.892 J-0.434
X28.497 Y20.5 I-0.528 J3.457
G1 Y24.5
G3 X21.503 I-3.497
G1 Y20.5
G3 X25.528 Y17.043 I3.497
G2 X27.576 Y16.249 I0.333 J-2.178
G3 X29.77 Y16.189 I1.123 J0.907
X31.43 Y20.5 I-4.77 J4.311
G1 Y24.5
G3 X18.57 I-6.43
G1 Y20.5
G3 X29.77 Y16.189 I6.43
X29.832 Y16.291 Z-9.226 I-0.233 J0.211
X29.851 Y16.39 Z-9.158 I-0.295 J0.108
X29.846 Y16.458 Z-9.056 I-0.314 J0.009
X29.84 Y16.481 Z-8.936 I-0.308 J-0.059
G0 Z15
M9
G28 G91 Z0
G28 X0 Y0
M30
%
